%
(Header)
(Generated by gcodetools from Inkscape.)
(Using default header. To add your own header create file "header" in the output dir.)
M3
(Header end.)
G21 (All units in mm)

(Start cutting path id: path111)
(Change tool to Default tool)

G00 Z5.000000
G00 X9.461330 Y5.043790

G01 Z-0.125000 F100.0(Penetrate)
G02 X9.118459 Y3.320068 Z-0.125000 I-4.504301 J0.000003 F400.000000
G02 X8.142047 Y1.858767 Z-0.125000 I-4.161432 J1.723726
G02 X6.680744 Y0.882358 Z-0.125000 I-3.185021 J3.185028
G02 X4.957020 Y0.539490 Z-0.125000 I-1.723719 J4.161439
G02 X1.771999 Y1.858771 Z-0.125000 I0.000005 J4.504307
G02 X0.452720 Y5.043790 Z-0.125000 I3.185022 J3.185022
G02 X0.795587 Y6.767513 Z-0.125000 I4.504301 J0.000007
G02 X1.771996 Y8.228816 Z-0.125000 I4.161436 J-1.723717
G02 X3.233297 Y9.205228 Z-0.125000 I3.185028 J-3.185021
G02 X4.957020 Y9.548100 Z-0.125000 I1.723728 J-4.161436
G02 X6.680746 Y9.205231 Z-0.125000 I0.000005 J-4.504307
G02 X8.142050 Y8.228819 Z-0.125000 I-1.723720 J-4.161436
G02 X9.118462 Y6.767515 Z-0.125000 I-3.185023 J-3.185023
G02 X9.461330 Y5.043790 Z-0.125000 I-4.161433 J-1.723718
G01 X9.461330 Y5.043790 Z-0.125000
G00 Z5.000000

(End cutting path id: path111)


(Footer)
M5
G00 X0.0000 Y0.0000
M2
(Using default footer. To add your own footer create file "footer" in the output dir.)
(end)
%
