(G-CODE GENERATED BY FLATCAM v8.994 - www.flatcam.org - Version Date: 2020/11/7)

(Name: relay - CADCAM Bottom Copper.GBR_iso_combined_cnc)
(Type: G-code from Geometry)
(Units: MM)

(Created on Sunday, 27 November 2022 at 20:12)

(This preprocessor is the default preprocessor used by FlatCAM.)
(It is made to work with MACH3 compatible motion controllers.)

(TOOL DIAMETER: 0.1 mm)
(Feedrate_XY: 120.0 mm/min)
(Feedrate_Z: 60.0 mm/min)
(Feedrate rapids 1500.0 mm/min)

(Z_Cut: -0.0 mm)
(Z_Move: 2.0 mm)
(Z Start: None mm)
(Z End: 5.0 mm)
(X,Y End: None mm)
(Steps per circle: 64)
(Preprocessor Geometry: default)

(X range:    2.6475 ...   92.6465  mm)
(Y range:  -67.6455 ...    0.0215  mm)

(Spindle Speed: 0.0 RPM)
G21
G90
G94

G01 F120.00

M5
G00 Z15.0000
G00 X0.0000 Y0.0000
T1
M6    
(MSG, Change to Tool Dia = 0.1000)
M0
G00 Z15.0000

M03
G01 F120.00
G00 X7.5670 Y-8.7468
G01 F60.00
G01 Z-0.0000
G01 F120.00
G01 X7.5677 Y-8.7383
G01 X7.5704 Y-8.7288
G01 X7.5741 Y-8.7211
G01 X7.5800 Y-8.7132
G01 X7.8207 Y-8.4723
G01 X7.8207 Y-8.2381
G01 X7.4131 Y-8.2381
G01 X7.4131 Y-9.5349
G01 X7.5670 Y-9.5349
G01 X7.5670 Y-8.7468
G00 Z2.0000
G00 X7.5816 Y-10.7126
G01 F60.00
G01 Z-0.0000
G01 F120.00
G01 X7.5761 Y-10.7060
G01 X7.5713 Y-10.6975
G01 X7.5682 Y-10.6882
G01 X7.5670 Y-10.6784
G01 X7.5670 Y-9.8891
G01 X7.4131 Y-9.8891
G01 X7.4131 Y-11.1859
G01 X7.8207 Y-11.1859
G01 X7.8207 Y-10.9517
G01 X7.5816 Y-10.7126
G00 Z2.0000
G00 X10.4473 Y-6.8900
G01 F60.00
G01 Z-0.0000
G01 F120.00
G01 X10.4473 Y-20.9870
G01 X10.4491 Y-21.0230
G01 X10.4544 Y-21.0587
G01 X10.4625 Y-21.0914
G01 X10.4753 Y-21.1277
G01 X10.4908 Y-21.1603
G01 X10.5080 Y-21.1892
G01 X10.5316 Y-21.2212
G01 X10.5550 Y-21.2470
G01 X11.7933 Y-22.4853
G01 X11.7997 Y-22.5103
G01 X11.8132 Y-22.5479
G01 X11.8323 Y-22.5883
G01 X11.8535 Y-22.6236
G01 X11.8772 Y-22.6556
G01 X11.9062 Y-22.6880
G01 X12.5427 Y-23.3244
G01 X12.5722 Y-23.3511
G01 X12.6042 Y-23.3749
G01 X12.6415 Y-23.3975
G01 X12.6819 Y-23.4166
G01 X12.7195 Y-23.4300
G01 X12.7445 Y-23.4365
G01 X13.0113 Y-23.7033
G01 X13.0113 Y-24.3920
G01 X12.9169 Y-24.3922
G01 X12.9108 Y-24.3932
G01 X12.9038 Y-24.3954
G01 X12.8972 Y-24.3985
G01 X12.8910 Y-24.4026
G01 X12.8864 Y-24.4066
G01 X12.5808 Y-24.7123
G01 X12.5761 Y-24.7180
G01 X12.5723 Y-24.7243
G01 X12.5692 Y-24.7323
G01 X12.5675 Y-24.7395
G01 X12.5670 Y-24.7468
G01 X12.5670 Y-26.6772
G01 X12.5680 Y-26.6870
G01 X12.5704 Y-26.6952
G01 X12.5723 Y-26.6997
G01 X12.5754 Y-26.7050
G01 X12.5816 Y-26.7126
G01 X12.8864 Y-27.0174
G01 X12.8910 Y-27.0214
G01 X12.8961 Y-27.0249
G01 X12.9015 Y-27.0277
G01 X12.9085 Y-27.0302
G01 X12.9145 Y-27.0315
G01 X12.9218 Y-27.0320
G01 X13.8362 Y-27.0320
G01 X13.8460 Y-27.0310
G01 X13.8553 Y-27.0282
G01 X13.8640 Y-27.0236
G01 X13.8707 Y-27.0182
G01 X14.1764 Y-26.7126
G01 X14.1804 Y-26.7080
G01 X14.1832 Y-26.7039
G01 X14.1862 Y-26.6986
G01 X14.1885 Y-26.6929
G01 X14.1903 Y-26.6857
G01 X14.1910 Y-26.6772
G01 X14.1910 Y-24.7468
G01 X14.1905 Y-24.7395
G01 X14.1885 Y-24.7311
G01 X14.1857 Y-24.7243
G01 X14.1819 Y-24.7180
G01 X14.1772 Y-24.7123
G01 X13.8716 Y-24.4066
G01 X13.8670 Y-24.4026
G01 X13.8608 Y-24.3985
G01 X13.8553 Y-24.3958
G01 X13.8483 Y-24.3935
G01 X13.8411 Y-24.3922
G01 X13.7467 Y-24.3920
G01 X13.7466 Y-23.5485
G01 X13.7449 Y-23.5150
G01 X13.7391 Y-23.4769
G01 X13.7301 Y-23.4419
G01 X13.7187 Y-23.4103
G01 X13.7070 Y-23.3854
G01 X15.9955 Y-23.3854
G01 X19.0833 Y-26.4733
G01 X19.0833 Y-37.6240
G01 X19.0854 Y-37.6625
G01 X19.0904 Y-37.6957
G01 X19.0992 Y-37.7307
G01 X19.1123 Y-37.7669
G01 X19.1268 Y-37.7973
G01 X19.1440 Y-37.8262
G01 X19.1668 Y-37.8572
G01 X19.1910 Y-37.8840
G01 X20.3149 Y-39.0078
G01 X20.3408 Y-39.0312
G01 X20.3697 Y-39.0527
G01 X20.4007 Y-39.0712
G01 X20.4322 Y-39.0862
G01 X20.4673 Y-39.0988
G01 X20.5023 Y-39.1076
G01 X20.5380 Y-39.1129
G01 X20.5728 Y-39.1146
G01 X22.0163 Y-39.1147
G01 X22.0519 Y-39.1896
G01 X22.0993 Y-39.2687
G01 X22.1541 Y-39.3427
G01 X22.2160 Y-39.4110
G01 X22.2843 Y-39.4729
G01 X22.3583 Y-39.5277
G01 X22.4374 Y-39.5751
G01 X22.5207 Y-39.6145
G01 X22.6074 Y-39.6456
G01 X22.6968 Y-39.6680
G01 X22.7880 Y-39.6815
G01 X22.8800 Y-39.6860
G01 X22.9720 Y-39.6815
G01 X23.0632 Y-39.6680
G01 X23.1526 Y-39.6456
G01 X23.2382 Y-39.6150
G01 X23.3248 Y-39.5739
G01 X23.4017 Y-39.5277
G01 X23.4738 Y-39.4744
G01 X23.5440 Y-39.4110
G01 X23.6074 Y-39.3408
G01 X23.6607 Y-39.2687
G01 X23.7069 Y-39.1918
G01 X23.7475 Y-39.1063
G01 X23.7792 Y-39.0172
G01 X23.8010 Y-38.9302
G01 X23.8145 Y-38.8390
G01 X23.8189 Y-38.7445
G01 X23.8145 Y-38.6550
G01 X23.8010 Y-38.5638
G01 X23.7778 Y-38.4721
G01 X23.7475 Y-38.3877
G01 X23.7092 Y-38.3066
G01 X23.6607 Y-38.2253
G01 X23.6043 Y-38.1494
G01 X23.5440 Y-38.0830
G01 X23.4776 Y-38.0227
G01 X23.4007 Y-37.9656
G01 X23.3226 Y-37.9189
G01 X23.2393 Y-37.8795
G01 X23.1526 Y-37.8484
G01 X23.0632 Y-37.8260
G01 X22.9720 Y-37.8125
G01 X22.8800 Y-37.8080
G01 X22.7880 Y-37.8125
G01 X22.6992 Y-37.8256
G01 X22.6074 Y-37.8484
G01 X22.5184 Y-37.8805
G01 X22.4374 Y-37.9189
G01 X22.3604 Y-37.9649
G01 X22.2843 Y-38.0211
G01 X22.2160 Y-38.0830
G01 X22.1526 Y-38.1532
G01 X22.0979 Y-38.2274
G01 X22.0519 Y-38.3044
G01 X22.0163 Y-38.3793
G01 X20.7263 Y-38.3793
G01 X19.8187 Y-37.4717
G01 X19.8187 Y-26.3210
G01 X19.8166 Y-26.2825
G01 X19.8116 Y-26.2493
G01 X19.8028 Y-26.2143
G01 X19.7897 Y-26.1781
G01 X19.7752 Y-26.1477
G01 X19.7574 Y-26.1178
G01 X19.7352 Y-26.0878
G01 X19.7110 Y-26.0610
G01 X16.4078 Y-22.7578
G01 X16.3810 Y-22.7336
G01 X16.3500 Y-22.7108
G01 X16.3211 Y-22.6935
G01 X16.2907 Y-22.6791
G01 X16.2545 Y-22.6660
G01 X16.2171 Y-22.6568
G01 X16.1838 Y-22.6519
G01 X16.1490 Y-22.6501
G01 X13.0879 Y-22.6501
G01 X12.5169 Y-22.0791
G01 X12.4865 Y-22.0515
G01 X12.4516 Y-22.0255
G01 X12.4142 Y-22.0032
G01 X12.3759 Y-21.9852
G01 X12.3383 Y-21.9717
G01 X12.3133 Y-21.9653
G01 X11.1827 Y-20.8347
G01 X11.1827 Y-7.0423
G01 X12.2373 Y-5.9877
G01 X15.9967 Y-5.9877
G01 X18.0480 Y-8.0390
G01 X18.0748 Y-8.0632
G01 X18.1037 Y-8.0847
G01 X18.1347 Y-8.1032
G01 X18.1684 Y-8.1191
G01 X18.2013 Y-8.1308
G01 X18.2363 Y-8.1396
G01 X18.2720 Y-8.1449
G01 X18.3080 Y-8.1467
G01 X21.5818 Y-8.1467
G01 X21.6178 Y-8.1449
G01 X21.6523 Y-8.1398
G01 X21.6908 Y-8.1301
G01 X21.7225 Y-8.1187
G01 X21.7551 Y-8.1032
G01 X21.7880 Y-8.0833
G01 X21.8150 Y-8.0632
G01 X21.8409 Y-8.0398
G01 X22.9407 Y-6.9400
G01 X24.0242 Y-6.9400
G01 X24.0303 Y-6.9395
G01 X24.0363 Y-6.9382
G01 X24.0421 Y-6.9362
G01 X24.0466 Y-6.9341
G01 X24.0518 Y-6.9309
G01 X24.0557 Y-6.9279
G01 X24.0592 Y-6.9245
G01 X24.0632 Y-6.9198
G01 X24.0677 Y-6.9125
G01 X24.0705 Y-6.9057
G01 X24.0723 Y-6.8985
G01 X24.0730 Y-6.8900
G01 X24.0730 Y-4.8580
G01 X24.0723 Y-4.8495
G01 X24.0696 Y-4.8400
G01 X24.0665 Y-4.8334
G01 X24.0624 Y-4.8272
G01 X24.0575 Y-4.8218
G01 X24.0518 Y-4.8171
G01 X24.0455 Y-4.8133
G01 X24.0375 Y-4.8102
G01 X24.0303 Y-4.8085
G01 X24.0230 Y-4.8080
G01 X21.9910 Y-4.8080
G01 X21.9812 Y-4.8090
G01 X21.9719 Y-4.8118
G01 X21.9643 Y-4.8158
G01 X21.9565 Y-4.8218
G01 X21.9531 Y-4.8253
G01 X21.9494 Y-4.8302
G01 X21.9448 Y-4.8389
G01 X21.9420 Y-4.8482
G01 X21.9410 Y-4.8580
G01 X21.9410 Y-6.8900
G01 X21.9418 Y-6.8990
G01 X21.4295 Y-7.4113
G01 X18.4603 Y-7.4113
G01 X16.4081 Y-5.3592
G01 X16.3822 Y-5.3358
G01 X16.3533 Y-5.3143
G01 X16.3223 Y-5.2958
G01 X16.2897 Y-5.2803
G01 X16.2557 Y-5.2682
G01 X16.2207 Y-5.2594
G01 X16.1850 Y-5.2541
G01 X16.1515 Y-5.2524
G01 X12.0850 Y-5.2523
G01 X12.0465 Y-5.2544
G01 X12.0133 Y-5.2594
G01 X11.9795 Y-5.2678
G01 X11.9443 Y-5.2803
G01 X11.9096 Y-5.2970
G01 X11.8807 Y-5.3143
G01 X11.8537 Y-5.3343
G01 X11.8259 Y-5.3592
G01 X10.5542 Y-6.6309
G01 X10.5308 Y-6.6568
G01 X10.5093 Y-6.6857
G01 X10.4908 Y-6.7167
G01 X10.4753 Y-6.7493
G01 X10.4632 Y-6.7833
G01 X10.4544 Y-6.8183
G01 X10.4491 Y-6.8540
G01 X10.4473 Y-6.8900
G00 Z2.0000
G00 X11.3364 Y-7.1793
G01 F60.00
G01 Z-0.0000
G01 F120.00
G01 X11.3364 Y-7.4909
G01 X11.3373 Y-7.5071
G01 X11.3398 Y-7.5243
G01 X11.3441 Y-7.5411
G01 X11.3494 Y-7.5563
G01 X11.3585 Y-7.5753
G01 X11.3663 Y-7.5881
G01 X11.3766 Y-7.6020
G01 X11.3883 Y-7.6149
G01 X11.3993 Y-7.6250
G01 X11.4172 Y-7.6382
G01 X11.4300 Y-7.6459
G01 X11.4457 Y-7.6533
G01 X11.4621 Y-7.6591
G01 X11.4766 Y-7.6628
G01 X11.4986 Y-7.6661
G01 X11.5135 Y-7.6668
G01 X11.5308 Y-7.6659
G01 X11.5480 Y-7.6634
G01 X11.5625 Y-7.6598
G01 X11.5835 Y-7.6523
G01 X11.5970 Y-7.6459
G01 X11.6119 Y-7.6369
G01 X11.6258 Y-7.6266
G01 X11.6378 Y-7.6158
G01 X12.5040 Y-6.7496
G01 X15.3388 Y-6.7496
G01 X17.6126 Y-9.0234
G01 X17.6246 Y-9.0342
G01 X17.6385 Y-9.0445
G01 X17.6534 Y-9.0535
G01 X17.6692 Y-9.0609
G01 X17.6855 Y-9.0667
G01 X17.7024 Y-9.0710
G01 X17.7196 Y-9.0735
G01 X17.7369 Y-9.0744
G01 X22.2097 Y-9.0744
G01 X22.2295 Y-9.0732
G01 X22.2442 Y-9.0710
G01 X22.2599 Y-9.0671
G01 X22.2774 Y-9.0609
G01 X22.2953 Y-9.0523
G01 X22.3081 Y-9.0445
G01 X22.3201 Y-9.0357
G01 X22.3349 Y-9.0225
G01 X23.9612 Y-7.3962
G01 X23.9729 Y-7.3833
G01 X23.9832 Y-7.3694
G01 X23.9922 Y-7.3545
G01 X23.9996 Y-7.3387
G01 X24.0054 Y-7.3224
G01 X24.0097 Y-7.3055
G01 X24.0122 Y-7.2883
G01 X24.0131 Y-7.2710
G01 X24.0122 Y-7.2536
G01 X24.0101 Y-7.2389
G01 X24.0047 Y-7.2173
G01 X23.9996 Y-7.2032
G01 X23.9922 Y-7.1875
G01 X23.9832 Y-7.1726
G01 X23.9729 Y-7.1587
G01 X23.9612 Y-7.1458
G01 X23.9483 Y-7.1341
G01 X23.9344 Y-7.1238
G01 X23.9216 Y-7.1160
G01 X23.9015 Y-7.1065
G01 X23.8874 Y-7.1016
G01 X23.8693 Y-7.0971
G01 X23.8534 Y-7.0948
G01 X23.8360 Y-7.0939
G01 X23.0764 Y-7.0939
G01 X23.0602 Y-7.0948
G01 X23.0430 Y-7.0973
G01 X23.0262 Y-7.1016
G01 X23.0076 Y-7.1084
G01 X22.9941 Y-7.1148
G01 X22.9792 Y-7.1238
G01 X22.9653 Y-7.1341
G01 X22.9524 Y-7.1458
G01 X21.7977 Y-8.3004
G01 X18.0920 Y-8.3004
G01 X15.9849 Y-6.1933
G01 X15.9701 Y-6.1801
G01 X15.9581 Y-6.1713
G01 X15.9432 Y-6.1623
G01 X15.9274 Y-6.1549
G01 X15.9134 Y-6.1498
G01 X15.8930 Y-6.1446
G01 X15.8770 Y-6.1423
G01 X15.8597 Y-6.1414
G01 X12.3743 Y-6.1414
G01 X12.3570 Y-6.1423
G01 X12.3386 Y-6.1451
G01 X12.3229 Y-6.1491
G01 X12.3088 Y-6.1540
G01 X12.2908 Y-6.1623
G01 X12.2739 Y-6.1727
G01 X12.2620 Y-6.1816
G01 X12.2500 Y-6.1924
G01 X11.3874 Y-7.0550
G01 X11.3766 Y-7.0670
G01 X11.3663 Y-7.0809
G01 X11.3573 Y-7.0958
G01 X11.3499 Y-7.1116
G01 X11.3441 Y-7.1279
G01 X11.3398 Y-7.1448
G01 X11.3373 Y-7.1620
G01 X11.3364 Y-7.1793
G00 Z2.0000
G00 X10.3204 Y-5.9093
G01 F60.00
G01 Z-0.0000
G01 F120.00
G01 X10.3204 Y-6.2197
G01 X10.3211 Y-6.2346
G01 X10.3238 Y-6.2543
G01 X10.3281 Y-6.2711
G01 X10.3339 Y-6.2875
G01 X10.3419 Y-6.3043
G01 X10.3503 Y-6.3181
G01 X10.3606 Y-6.3320
G01 X10.3723 Y-6.3449
G01 X10.3852 Y-6.3566
G01 X10.3991 Y-6.3669
G01 X10.4140 Y-6.3759
G01 X10.4297 Y-6.3833
G01 X10.4461 Y-6.3891
G01 X10.4629 Y-6.3934
G01 X10.4801 Y-6.3959
G01 X10.4975 Y-6.3968
G01 X10.5148 Y-6.3959
G01 X10.5320 Y-6.3934
G01 X10.5489 Y-6.3891
G01 X10.5652 Y-6.3833
G01 X10.5810 Y-6.3759
G01 X10.5959 Y-6.3669
G01 X10.6079 Y-6.3581
G01 X10.6227 Y-6.3449
G01 X11.8690 Y-5.0986
G01 X16.3650 Y-5.0986
G01 X18.4721 Y-7.2057
G01 X18.4859 Y-7.2181
G01 X18.4989 Y-7.2277
G01 X18.5117 Y-7.2355
G01 X18.5296 Y-7.2441
G01 X18.5459 Y-7.2499
G01 X18.5604 Y-7.2536
G01 X18.5824 Y-7.2569
G01 X18.5973 Y-7.2576
G01 X19.0700 Y-7.2576
G01 X19.0874 Y-7.2567
G01 X19.1033 Y-7.2544
G01 X19.1214 Y-7.2499
G01 X19.1355 Y-7.2450
G01 X19.1556 Y-7.2355
G01 X19.1684 Y-7.2277
G01 X19.1823 Y-7.2174
G01 X19.1952 Y-7.2057
G01 X19.2053 Y-7.1947
G01 X19.2185 Y-7.1768
G01 X19.2262 Y-7.1640
G01 X19.2336 Y-7.1483
G01 X19.2394 Y-7.1319
G01 X19.2431 Y-7.1174
G01 X19.2464 Y-7.0954
G01 X19.2471 Y-7.0805
G01 X19.2471 Y-4.6541
G01 X19.7697 Y-4.6541
G01 X19.7859 Y-4.6532
G01 X19.8031 Y-4.6507
G01 X19.8199 Y-4.6464
G01 X19.8374 Y-4.6401
G01 X19.8520 Y-4.6332
G01 X19.8669 Y-4.6242
G01 X19.8808 Y-4.6139
G01 X19.8937 Y-4.6022
G01 X19.9054 Y-4.5893
G01 X19.9157 Y-4.5754
G01 X19.9247 Y-4.5605
G01 X19.9330 Y-4.5425
G01 X19.9379 Y-4.5284
G01 X19.9419 Y-4.5128
G01 X19.9449 Y-4.4919
G01 X19.9456 Y-4.4770
G01 X19.9456 Y-4.3841
G01 X19.9447 Y-4.3680
G01 X19.9424 Y-4.3520
G01 X19.9379 Y-4.3339
G01 X19.9311 Y-4.3153
G01 X19.9247 Y-4.3018
G01 X19.9170 Y-4.2890
G01 X19.9061 Y-4.2739
G01 X19.8937 Y-4.2601
G01 X19.7949 Y-4.1613
G01 X19.7839 Y-4.1512
G01 X19.7660 Y-4.1380
G01 X19.7521 Y-4.1298
G01 X19.7352 Y-4.1220
G01 X19.7211 Y-4.1171
G01 X19.7042 Y-4.1128
G01 X19.6870 Y-4.1103
G01 X19.6709 Y-4.1094
G01 X12.1203 Y-4.1094
G01 X12.1029 Y-4.1103
G01 X12.0870 Y-4.1126
G01 X12.0666 Y-4.1178
G01 X12.0525 Y-4.1229
G01 X12.0368 Y-4.1303
G01 X12.0199 Y-4.1407
G01 X12.0080 Y-4.1496
G01 X11.9960 Y-4.1604
G01 X10.3723 Y-5.7841
G01 X10.3606 Y-5.7970
G01 X10.3503 Y-5.8109
G01 X10.3413 Y-5.8258
G01 X10.3339 Y-5.8415
G01 X10.3281 Y-5.8579
G01 X10.3238 Y-5.8748
G01 X10.3213 Y-5.8919
G01 X10.3204 Y-5.9093
G00 Z2.0000
G00 X12.5670 Y-8.7468
G01 F60.00
G01 Z-0.0000
G01 F120.00
G01 X12.5670 Y-10.6772
G01 X12.5674 Y-10.6833
G01 X12.5692 Y-10.6917
G01 X12.5718 Y-10.6986
G01 X12.5754 Y-10.7050
G01 X12.5808 Y-10.7117
G01 X12.8882 Y-11.0190
G01 X12.8930 Y-11.0229
G01 X12.8993 Y-11.0267
G01 X12.9050 Y-11.0291
G01 X12.9108 Y-11.0308
G01 X12.9206 Y-11.0320
G01 X12.9478 Y-11.0320
G01 X12.9479 Y-12.3994
G01 X12.9499 Y-12.4392
G01 X12.9557 Y-12.4787
G01 X12.9664 Y-12.5221
G01 X12.9806 Y-12.5620
G01 X12.9976 Y-12.5980
G01 X13.0205 Y-12.6365
G01 X13.0457 Y-12.6705
G01 X13.0741 Y-12.7018
G01 X19.1050 Y-18.7328
G01 X19.1355 Y-18.7603
G01 X19.1695 Y-18.7855
G01 X19.2058 Y-18.8073
G01 X19.2440 Y-18.8254
G01 X19.2839 Y-18.8396
G01 X19.3249 Y-18.8499
G01 X19.3668 Y-18.8561
G01 X19.4066 Y-18.8581
G01 X22.0464 Y-18.8582
G01 X22.0531 Y-18.8718
G01 X22.0993 Y-18.9487
G01 X22.1557 Y-19.0246
G01 X22.2160 Y-19.0910
G01 X22.2824 Y-19.1513
G01 X22.3583 Y-19.2077
G01 X22.4396 Y-19.2562
G01 X22.5207 Y-19.2945
G01 X22.6051 Y-19.3248
G01 X22.6968 Y-19.3480
G01 X22.7892 Y-19.3616
G01 X22.8800 Y-19.3660
G01 X22.9745 Y-19.3612
G01 X23.0656 Y-19.3474
G01 X23.1526 Y-19.3256
G01 X23.2371 Y-19.2954
G01 X23.3226 Y-19.2551
G01 X23.4017 Y-19.2077
G01 X23.4757 Y-19.1529
G01 X23.5448 Y-19.0901
G01 X23.6074 Y-19.0208
G01 X23.6607 Y-18.9487
G01 X23.7069 Y-18.8718
G01 X23.7475 Y-18.7863
G01 X23.7792 Y-18.6972
G01 X23.8010 Y-18.6102
G01 X23.8142 Y-18.5215
G01 X23.8190 Y-18.4270
G01 X23.8142 Y-18.3325
G01 X23.8010 Y-18.2438
G01 X23.7792 Y-18.1568
G01 X23.7475 Y-18.0677
G01 X23.7069 Y-17.9822
G01 X23.6607 Y-17.9053
G01 X23.6074 Y-17.8332
G01 X23.5440 Y-17.7630
G01 X23.4738 Y-17.6996
G01 X23.4017 Y-17.6463
G01 X23.3248 Y-17.6001
G01 X23.2393 Y-17.5595
G01 X23.1514 Y-17.5281
G01 X23.0632 Y-17.5060
G01 X22.9720 Y-17.4925
G01 X22.8800 Y-17.4880
G01 X22.7904 Y-17.4923
G01 X22.6944 Y-17.5066
G01 X22.6074 Y-17.5284
G01 X22.5207 Y-17.5595
G01 X22.4374 Y-17.5989
G01 X22.3583 Y-17.6463
G01 X22.2843 Y-17.7011
G01 X22.2178 Y-17.7613
G01 X22.1541 Y-17.8313
G01 X22.1007 Y-17.9033
G01 X22.0531 Y-17.9822
G01 X22.0464 Y-17.9958
G01 X19.5877 Y-17.9958
G01 X13.8102 Y-12.2183
G01 X13.8102 Y-11.0320
G01 X13.8374 Y-11.0320
G01 X13.8472 Y-11.0308
G01 X13.8530 Y-11.0291
G01 X13.8598 Y-11.0261
G01 X13.8650 Y-11.0229
G01 X13.8698 Y-11.0190
G01 X14.1772 Y-10.7117
G01 X14.1826 Y-10.7050
G01 X14.1862 Y-10.6986
G01 X14.1892 Y-10.6905
G01 X14.1908 Y-10.6821
G01 X14.1910 Y-8.7468
G01 X14.1905 Y-8.7395
G01 X14.1885 Y-8.7311
G01 X14.1851 Y-8.7232
G01 X14.1812 Y-8.7170
G01 X14.1764 Y-8.7114
G01 X13.8707 Y-8.4058
G01 X13.8650 Y-8.4011
G01 X13.8598 Y-8.3979
G01 X13.8542 Y-8.3954
G01 X13.8483 Y-8.3935
G01 X13.8423 Y-8.3924
G01 X13.8362 Y-8.3920
G01 X12.9206 Y-8.3920
G01 X12.9120 Y-8.3930
G01 X12.9027 Y-8.3958
G01 X12.8951 Y-8.3998
G01 X12.8873 Y-8.4058
G01 X12.5816 Y-8.7114
G01 X12.5754 Y-8.7190
G01 X12.5708 Y-8.7277
G01 X12.5680 Y-8.7370
G01 X12.5670 Y-8.7468
G00 Z2.0000
G00 X12.5670 Y-16.7468
G01 F60.00
G01 Z-0.0000
G01 F120.00
G01 X12.5670 Y-18.6772
G01 X12.5675 Y-18.6845
G01 X12.5695 Y-18.6929
G01 X12.5723 Y-18.6997
G01 X12.5761 Y-18.7060
G01 X12.5808 Y-18.7117
G01 X12.8864 Y-19.0174
G01 X12.8940 Y-19.0236
G01 X12.9027 Y-19.0282
G01 X12.9120 Y-19.0310
G01 X12.9218 Y-19.0320
G01 X13.8362 Y-19.0320
G01 X13.8435 Y-19.0315
G01 X13.8519 Y-19.0295
G01 X13.8587 Y-19.0267
G01 X13.8650 Y-19.0229
G01 X13.8716 Y-19.0174
G01 X14.1764 Y-18.7126
G01 X14.1804 Y-18.7080
G01 X14.1832 Y-18.7039
G01 X14.1862 Y-18.6986
G01 X14.1881 Y-18.6940
G01 X14.1903 Y-18.6857
G01 X14.1910 Y-18.6772
G01 X14.1910 Y-18.1432
G01 X15.9974 Y-18.1432
G01 X19.1261 Y-21.2719
G01 X19.1575 Y-21.3003
G01 X19.1914 Y-21.3255
G01 X19.2277 Y-21.3473
G01 X19.2660 Y-21.3654
G01 X19.3058 Y-21.3796
G01 X19.3469 Y-21.3899
G01 X19.3887 Y-21.3961
G01 X19.4310 Y-21.3982
G01 X22.0464 Y-21.3982
G01 X22.0531 Y-21.4118
G01 X22.0993 Y-21.4887
G01 X22.1557 Y-21.5646
G01 X22.2160 Y-21.6310
G01 X22.2824 Y-21.6913
G01 X22.3604 Y-21.7491
G01 X22.4374 Y-21.7951
G01 X22.5184 Y-21.8335
G01 X22.6074 Y-21.8656
G01 X22.6992 Y-21.8884
G01 X22.7880 Y-21.9015
G01 X22.8800 Y-21.9060
G01 X22.9745 Y-21.9012
G01 X23.0632 Y-21.8880
G01 X23.1526 Y-21.8656
G01 X23.2393 Y-21.8345
G01 X23.3204 Y-21.7962
G01 X23.4017 Y-21.7477
G01 X23.4776 Y-21.6913
G01 X23.5440 Y-21.6310
G01 X23.6059 Y-21.5627
G01 X23.6621 Y-21.4866
G01 X23.7081 Y-21.4096
G01 X23.7475 Y-21.3263
G01 X23.7786 Y-21.2396
G01 X23.8010 Y-21.1502
G01 X23.8145 Y-21.0590
G01 X23.8190 Y-20.9670
G01 X23.8145 Y-20.8750
G01 X23.8010 Y-20.7838
G01 X23.7786 Y-20.6944
G01 X23.7475 Y-20.6077
G01 X23.7081 Y-20.5244
G01 X23.6607 Y-20.4453
G01 X23.6059 Y-20.3713
G01 X23.5440 Y-20.3030
G01 X23.4757 Y-20.2411
G01 X23.4017 Y-20.1863
G01 X23.3226 Y-20.1389
G01 X23.2393 Y-20.0995
G01 X23.1526 Y-20.0684
G01 X23.0632 Y-20.0460
G01 X22.9720 Y-20.0325
G01 X22.8800 Y-20.0280
G01 X22.7880 Y-20.0325
G01 X22.6968 Y-20.0460
G01 X22.6074 Y-20.0684
G01 X22.5229 Y-20.0986
G01 X22.4374 Y-20.1389
G01 X22.3583 Y-20.1863
G01 X22.2843 Y-20.2411
G01 X22.2178 Y-20.3013
G01 X22.1541 Y-20.3713
G01 X22.1007 Y-20.4433
G01 X22.0531 Y-20.5222
G01 X22.0464 Y-20.5358
G01 X19.6096 Y-20.5358
G01 X16.4809 Y-17.4071
G01 X16.4476 Y-17.3772
G01 X16.4156 Y-17.3535
G01 X16.3793 Y-17.3317
G01 X16.3410 Y-17.3136
G01 X16.2988 Y-17.2987
G01 X16.2601 Y-17.2891
G01 X16.2207 Y-17.2832
G01 X16.1772 Y-17.2808
G01 X14.1910 Y-17.2808
G01 X14.1910 Y-16.7468
G01 X14.1903 Y-16.7383
G01 X14.1876 Y-16.7288
G01 X14.1857 Y-16.7243
G01 X14.1826 Y-16.7190
G01 X14.1764 Y-16.7114
G01 X13.8716 Y-16.4066
G01 X13.8650 Y-16.4011
G01 X13.8587 Y-16.3973
G01 X13.8519 Y-16.3945
G01 X13.8435 Y-16.3925
G01 X13.8362 Y-16.3920
G01 X12.9218 Y-16.3920
G01 X12.9145 Y-16.3925
G01 X12.9085 Y-16.3938
G01 X12.9027 Y-16.3958
G01 X12.8972 Y-16.3985
G01 X12.8920 Y-16.4018
G01 X12.8873 Y-16.4058
G01 X12.5808 Y-16.7123
G01 X12.5754 Y-16.7190
G01 X12.5708 Y-16.7277
G01 X12.5680 Y-16.7370
G01 X12.5670 Y-16.7468
G00 Z2.0000
G00 X11.3365 Y-20.7001
G01 F60.00
G01 Z-0.0000
G01 F120.00
G01 X11.3373 Y-20.7150
G01 X11.3398 Y-20.7322
G01 X11.3441 Y-20.7491
G01 X11.3499 Y-20.7654
G01 X11.3573 Y-20.7812
G01 X11.3663 Y-20.7961
G01 X11.3766 Y-20.8100
G01 X11.3874 Y-20.8220
G01 X12.3135 Y-21.7481
G01 X12.3255 Y-21.7589
G01 X12.3394 Y-21.7692
G01 X12.3544 Y-21.7782
G01 X12.3724 Y-21.7865
G01 X12.3876 Y-21.7918
G01 X12.4057 Y-21.7961
G01 X12.4229 Y-21.7984
G01 X12.4366 Y-21.7991
G01 X12.4543 Y-21.7991
G01 X13.1006 Y-22.4454
G01 X13.1126 Y-22.4562
G01 X13.1286 Y-22.4678
G01 X13.1414 Y-22.4755
G01 X13.1549 Y-22.4819
G01 X13.1712 Y-22.4880
G01 X13.1928 Y-22.4934
G01 X13.2075 Y-22.4955
G01 X13.2249 Y-22.4964
G01 X16.3638 Y-22.4964
G01 X19.8356 Y-25.9681
G01 X19.8486 Y-25.9796
G01 X19.8606 Y-25.9884
G01 X19.8734 Y-25.9962
G01 X19.8913 Y-26.0048
G01 X19.9064 Y-26.0103
G01 X19.9245 Y-26.0149
G01 X19.9417 Y-26.0174
G01 X19.9590 Y-26.0183
G01 X19.9788 Y-26.0171
G01 X19.9936 Y-26.0149
G01 X20.0080 Y-26.0113
G01 X20.0245 Y-26.0057
G01 X20.0425 Y-25.9974
G01 X20.0574 Y-25.9884
G01 X20.0713 Y-25.9781
G01 X20.0859 Y-25.9646
G01 X20.0959 Y-25.9535
G01 X20.1048 Y-25.9416
G01 X20.1140 Y-25.9268
G01 X20.1226 Y-25.9090
G01 X20.1291 Y-25.8902
G01 X20.1327 Y-25.8758
G01 X20.1349 Y-25.8610
G01 X20.1361 Y-25.8424
G01 X20.1361 Y-25.0657
G01 X20.1352 Y-25.0495
G01 X20.1331 Y-25.0348
G01 X20.1277 Y-25.0132
G01 X20.1226 Y-24.9991
G01 X20.1152 Y-24.9834
G01 X20.1062 Y-24.9685
G01 X20.0974 Y-24.9565
G01 X20.0842 Y-24.9417
G01 X19.3741 Y-24.2315
G01 X19.3741 Y-24.2139
G01 X19.3734 Y-24.2002
G01 X19.3711 Y-24.1830
G01 X19.3668 Y-24.1649
G01 X19.3615 Y-24.1496
G01 X19.3532 Y-24.1316
G01 X19.3442 Y-24.1167
G01 X19.3339 Y-24.1028
G01 X19.3231 Y-24.0908
G01 X17.1736 Y-21.9413
G01 X17.1588 Y-21.9281
G01 X17.1468 Y-21.9193
G01 X17.1340 Y-21.9115
G01 X17.1162 Y-21.9029
G01 X17.0975 Y-21.8964
G01 X17.0830 Y-21.8928
G01 X17.0682 Y-21.8906
G01 X17.0484 Y-21.8894
G01 X13.1390 Y-21.8894
G01 X11.6387 Y-20.3891
G01 X11.6258 Y-20.3774
G01 X11.6119 Y-20.3671
G01 X11.5970 Y-20.3581
G01 X11.5812 Y-20.3507
G01 X11.5649 Y-20.3449
G01 X11.5480 Y-20.3406
G01 X11.5308 Y-20.3381
G01 X11.5135 Y-20.3372
G01 X11.4961 Y-20.3381
G01 X11.4814 Y-20.3402
G01 X11.4633 Y-20.3445
G01 X11.4480 Y-20.3498
G01 X11.4279 Y-20.3594
G01 X11.4151 Y-20.3671
G01 X11.4012 Y-20.3774
G01 X11.3883 Y-20.3891
G01 X11.3766 Y-20.4020
G01 X11.3650 Y-20.4180
G01 X11.3573 Y-20.4308
G01 X11.3499 Y-20.4465
G01 X11.3434 Y-20.4653
G01 X11.3398 Y-20.4798
G01 X11.3374 Y-20.4957
G01 X11.3364 Y-20.5143
G01 X11.3365 Y-20.7001
G00 Z2.0000
G00 X10.3205 Y-24.7641
G01 F60.00
G01 Z-0.0000
G01 F120.00
G01 X10.3213 Y-24.7790
G01 X10.3238 Y-24.7962
G01 X10.3281 Y-24.8131
G01 X10.3339 Y-24.8294
G01 X10.3413 Y-24.8451
G01 X10.3503 Y-24.8601
G01 X10.3606 Y-24.8740
G01 X10.3714 Y-24.8860
G01 X12.1108 Y-26.6254
G01 X12.1218 Y-26.6355
G01 X12.1376 Y-26.6474
G01 X12.1525 Y-26.6564
G01 X12.1683 Y-26.6638
G01 X12.1846 Y-26.6696
G01 X12.2015 Y-26.6739
G01 X12.2187 Y-26.6764
G01 X12.2360 Y-26.6773
G01 X12.2521 Y-26.6765
G01 X12.2706 Y-26.6739
G01 X12.2874 Y-26.6696
G01 X12.3038 Y-26.6638
G01 X12.3195 Y-26.6564
G01 X12.3344 Y-26.6474
G01 X12.3483 Y-26.6371
G01 X12.3612 Y-26.6254
G01 X12.3713 Y-26.6144
G01 X12.3845 Y-26.5965
G01 X12.3927 Y-26.5826
G01 X12.4005 Y-26.5657
G01 X12.4054 Y-26.5516
G01 X12.4097 Y-26.5347
G01 X12.4122 Y-26.5176
G01 X12.4131 Y-26.5014
G01 X12.4131 Y-24.2381
G01 X12.6805 Y-24.2381
G01 X12.6991 Y-24.2371
G01 X12.7151 Y-24.2347
G01 X12.7319 Y-24.2304
G01 X12.7483 Y-24.2246
G01 X12.7618 Y-24.2183
G01 X12.7809 Y-24.2068
G01 X12.7928 Y-24.1979
G01 X12.8066 Y-24.1853
G01 X12.8174 Y-24.1733
G01 X12.8277 Y-24.1594
G01 X12.8367 Y-24.1445
G01 X12.8431 Y-24.1310
G01 X12.8506 Y-24.1100
G01 X12.8542 Y-24.0956
G01 X12.8567 Y-24.0784
G01 X12.8576 Y-24.0610
G01 X12.8575 Y-23.8379
G01 X12.8567 Y-23.8230
G01 X12.8542 Y-23.8058
G01 X12.8499 Y-23.7889
G01 X12.8450 Y-23.7748
G01 X12.8355 Y-23.7547
G01 X12.8270 Y-23.7409
G01 X12.8158 Y-23.7261
G01 X12.8057 Y-23.7151
G01 X12.7443 Y-23.6537
G01 X12.7323 Y-23.6429
G01 X12.7194 Y-23.6332
G01 X12.7012 Y-23.6225
G01 X12.6877 Y-23.6162
G01 X12.6702 Y-23.6100
G01 X12.6545 Y-23.6061
G01 X12.6373 Y-23.6036
G01 X12.6212 Y-23.6027
G01 X12.6035 Y-23.6027
G01 X11.6271 Y-22.6263
G01 X11.6271 Y-22.6086
G01 X11.6264 Y-22.5949
G01 X11.6241 Y-22.5777
G01 X11.6198 Y-22.5596
G01 X11.6145 Y-22.5444
G01 X11.6062 Y-22.5264
G01 X11.5972 Y-22.5114
G01 X11.5869 Y-22.4975
G01 X11.5752 Y-22.4846
G01 X10.6218 Y-21.5312
G01 X10.6098 Y-21.5204
G01 X10.5959 Y-21.5101
G01 X10.5810 Y-21.5011
G01 X10.5675 Y-21.4947
G01 X10.5501 Y-21.4882
G01 X10.5344 Y-21.4842
G01 X10.5124 Y-21.4809
G01 X10.4975 Y-21.4802
G01 X10.4801 Y-21.4811
G01 X10.4629 Y-21.4836
G01 X10.4461 Y-21.4879
G01 X10.4297 Y-21.4937
G01 X10.4140 Y-21.5011
G01 X10.3991 Y-21.5101
G01 X10.3842 Y-21.5212
G01 X10.3723 Y-21.5321
G01 X10.3606 Y-21.5450
G01 X10.3503 Y-21.5589
G01 X10.3413 Y-21.5738
G01 X10.3339 Y-21.5895
G01 X10.3281 Y-21.6059
G01 X10.3238 Y-21.6228
G01 X10.3211 Y-21.6424
G01 X10.3204 Y-21.6573
G01 X10.3205 Y-24.7641
G00 Z2.0000
G00 X7.4131 Y-25.5349
G01 F60.00
G01 Z-0.0000
G01 F120.00
G01 X7.5670 Y-25.5349
G01 X7.5670 Y-24.7468
G01 X7.5680 Y-24.7370
G01 X7.5699 Y-24.7300
G01 X7.5729 Y-24.7232
G01 X7.5768 Y-24.7170
G01 X7.5808 Y-24.7123
G01 X7.8207 Y-24.4723
G01 X7.8207 Y-24.2381
G01 X7.4131 Y-24.2381
G01 X7.4131 Y-25.5349
G00 Z2.0000
G00 X2.6476 Y-28.9926
G01 F60.00
G01 Z-0.0000
G01 F120.00
G01 X2.6484 Y-29.0075
G01 X2.6505 Y-29.0223
G01 X2.6552 Y-29.0416
G01 X2.6610 Y-29.0579
G01 X2.6673 Y-29.0715
G01 X2.6774 Y-29.0886
G01 X2.6877 Y-29.1025
G01 X2.6977 Y-29.1136
G01 X2.7123 Y-29.1271
G01 X2.7283 Y-29.1387
G01 X2.7411 Y-29.1463
G01 X2.7546 Y-29.1528
G01 X2.7732 Y-29.1596
G01 X2.7925 Y-29.1643
G01 X2.8072 Y-29.1664
G01 X2.8234 Y-29.1672
G01 X2.8444 Y-29.1661
G01 X2.8591 Y-29.1638
G01 X2.8736 Y-29.1603
G01 X2.8924 Y-29.1538
G01 X2.9102 Y-29.1451
G01 X2.9230 Y-29.1374
G01 X2.9360 Y-29.1278
G01 X2.9498 Y-29.1154
G01 X4.6781 Y-27.3871
G01 X7.2360 Y-27.3871
G01 X7.2558 Y-27.3859
G01 X7.2706 Y-27.3837
G01 X7.2874 Y-27.3794
G01 X7.3060 Y-27.3726
G01 X7.3195 Y-27.3662
G01 X7.3334 Y-27.3579
G01 X7.3483 Y-27.3469
G01 X7.3629 Y-27.3334
G01 X7.3729 Y-27.3223
G01 X7.3818 Y-27.3104
G01 X7.3910 Y-27.2956
G01 X7.3996 Y-27.2778
G01 X7.4054 Y-27.2614
G01 X7.4097 Y-27.2446
G01 X7.4124 Y-27.2249
G01 X7.4131 Y-27.2100
G01 X7.4131 Y-25.8891
G01 X7.5670 Y-25.8891
G01 X7.5670 Y-26.6784
G01 X7.5682 Y-26.6882
G01 X7.5708 Y-26.6963
G01 X7.5748 Y-26.7039
G01 X7.5800 Y-26.7108
G01 X7.8873 Y-27.0182
G01 X7.8930 Y-27.0229
G01 X7.8982 Y-27.0261
G01 X7.9038 Y-27.0286
G01 X7.9108 Y-27.0308
G01 X7.9169 Y-27.0318
G01 X7.9218 Y-27.0320
G01 X8.8374 Y-27.0320
G01 X8.8435 Y-27.0315
G01 X8.8495 Y-27.0302
G01 X8.8553 Y-27.0282
G01 X8.8608 Y-27.0255
G01 X8.8650 Y-27.0229
G01 X8.8698 Y-27.0190
G01 X8.8832 Y-27.0057
G01 X9.0634 Y-27.1859
G01 X8.8602 Y-27.1859
G01 X8.8416 Y-27.1869
G01 X8.8257 Y-27.1893
G01 X8.8112 Y-27.1929
G01 X8.7925 Y-27.1994
G01 X8.7767 Y-27.2068
G01 X8.7639 Y-27.2145
G01 X8.7469 Y-27.2269
G01 X8.7350 Y-27.2378
G01 X8.7233 Y-27.2507
G01 X8.7130 Y-27.2646
G01 X8.7041 Y-27.2795
G01 X8.6966 Y-27.2952
G01 X8.6908 Y-27.3116
G01 X8.6865 Y-27.3284
G01 X8.6840 Y-27.3456
G01 X8.6831 Y-27.3630
G01 X8.6840 Y-27.3803
G01 X8.6865 Y-27.3975
G01 X8.6908 Y-27.4144
G01 X8.6966 Y-27.4307
G01 X8.7041 Y-27.4465
G01 X8.7130 Y-27.4614
G01 X8.7233 Y-27.4753
G01 X8.7350 Y-27.4882
G01 X12.1229 Y-30.8760
G01 X12.1357 Y-30.8877
G01 X12.1487 Y-30.8974
G01 X12.1668 Y-30.9081
G01 X12.1803 Y-30.9144
G01 X12.1967 Y-30.9203
G01 X12.2159 Y-30.9249
G01 X12.2307 Y-30.9271
G01 X12.2468 Y-30.9279
G01 X13.6061 Y-30.9279
G01 X13.6223 Y-30.9272
G01 X13.6431 Y-30.9240
G01 X13.6575 Y-30.9203
G01 X13.6739 Y-30.9144
G01 X13.6917 Y-30.9058
G01 X13.7045 Y-30.8981
G01 X13.7184 Y-30.8877
G01 X13.7313 Y-30.8760
G01 X13.9183 Y-30.6891
G01 X14.8237 Y-30.6891
G01 X15.4639 Y-31.3293
G01 X15.4639 Y-32.2347
G01 X14.8237 Y-32.8749
G01 X13.9183 Y-32.8749
G01 X13.4452 Y-32.4019
G01 X13.4341 Y-32.3919
G01 X13.4222 Y-32.3830
G01 X13.4052 Y-32.3727
G01 X13.3872 Y-32.3644
G01 X13.3732 Y-32.3594
G01 X13.3575 Y-32.3554
G01 X13.3391 Y-32.3526
G01 X13.3218 Y-32.3518
G01 X11.5849 Y-32.3518
G01 X8.0960 Y-28.8628
G01 X8.0831 Y-28.8511
G01 X8.0671 Y-28.8395
G01 X8.0542 Y-28.8318
G01 X8.0408 Y-28.8254
G01 X8.0222 Y-28.8186
G01 X8.0053 Y-28.8143
G01 X7.9906 Y-28.8121
G01 X7.9708 Y-28.8109
G01 X5.3412 Y-28.8109
G01 X5.3214 Y-28.8121
G01 X5.3067 Y-28.8143
G01 X5.2898 Y-28.8186
G01 X5.2735 Y-28.8244
G01 X5.2556 Y-28.8330
G01 X5.2429 Y-28.8408
G01 X5.2308 Y-28.8496
G01 X5.2169 Y-28.8619
G01 X4.2128 Y-29.8660
G01 X4.1996 Y-29.8808
G01 X4.1908 Y-29.8929
G01 X4.1830 Y-29.9056
G01 X4.1744 Y-29.9235
G01 X4.1682 Y-29.9410
G01 X4.1643 Y-29.9567
G01 X4.1621 Y-29.9714
G01 X4.1609 Y-29.9912
G01 X4.1609 Y-40.8118
G01 X4.1621 Y-40.8316
G01 X4.1643 Y-40.8463
G01 X4.1686 Y-40.8632
G01 X4.1744 Y-40.8795
G01 X4.1830 Y-40.8974
G01 X4.1908 Y-40.9101
G01 X4.1996 Y-40.9222
G01 X4.2119 Y-40.9361
G01 X4.8440 Y-41.5682
G01 X4.8588 Y-41.5814
G01 X4.8709 Y-41.5902
G01 X4.8836 Y-41.5980
G01 X4.9015 Y-41.6066
G01 X4.9190 Y-41.6128
G01 X4.9347 Y-41.6167
G01 X4.9494 Y-41.6189
G01 X4.9680 Y-41.6201
G01 X5.4938 Y-41.6201
G01 X5.5111 Y-41.6192
G01 X5.5271 Y-41.6169
G01 X5.5440 Y-41.6128
G01 X5.5492 Y-41.6111
G01 X5.8439 Y-41.6111
G01 X5.8613 Y-41.6102
G01 X5.8773 Y-41.6079
G01 X5.8977 Y-41.6027
G01 X5.9117 Y-41.5976
G01 X5.9252 Y-41.5913
G01 X5.9423 Y-41.5812
G01 X5.9581 Y-41.5693
G01 X5.9692 Y-41.5592
G01 X6.2983 Y-41.2301
G01 X7.2037 Y-41.2301
G01 X7.8439 Y-41.8703
G01 X7.8439 Y-42.7757
G01 X7.2037 Y-43.4159
G01 X6.2983 Y-43.4159
G01 X5.9782 Y-43.0958
G01 X5.9671 Y-43.0857
G01 X5.9503 Y-43.0731
G01 X5.9364 Y-43.0648
G01 X5.9230 Y-43.0584
G01 X5.9043 Y-43.0516
G01 X5.8851 Y-43.0469
G01 X5.8703 Y-43.0448
G01 X5.8529 Y-43.0439
G01 X4.6972 Y-43.0439
G01 X4.6799 Y-43.0448
G01 X4.6627 Y-43.0473
G01 X4.6458 Y-43.0516
G01 X4.6295 Y-43.0574
G01 X4.6138 Y-43.0648
G01 X4.5989 Y-43.0738
G01 X4.5849 Y-43.0841
G01 X4.5729 Y-43.0949
G01 X4.3398 Y-43.3280
G01 X4.3281 Y-43.3409
G01 X4.3165 Y-43.3569
G01 X4.3088 Y-43.3698
G01 X4.3014 Y-43.3855
G01 X4.2956 Y-43.4018
G01 X4.2919 Y-43.4163
G01 X4.2886 Y-43.4383
G01 X4.2879 Y-43.4532
G01 X4.2879 Y-50.9718
G01 X4.2888 Y-50.9891
G01 X4.2909 Y-51.0039
G01 X4.2963 Y-51.0255
G01 X4.3014 Y-51.0395
G01 X4.3077 Y-51.0530
G01 X4.3165 Y-51.0681
G01 X4.3281 Y-51.0841
G01 X4.3398 Y-51.0970
G01 X6.0389 Y-52.7961
G01 X6.0518 Y-52.8077
G01 X6.0657 Y-52.8181
G01 X6.0806 Y-52.8270
G01 X6.0941 Y-52.8335
G01 X6.1127 Y-52.8403
G01 X6.1295 Y-52.8445
G01 X6.1443 Y-52.8468
G01 X6.1653 Y-52.8479
G01 X6.1814 Y-52.8471
G01 X6.1986 Y-52.8445
G01 X6.2155 Y-52.8403
G01 X6.2330 Y-52.8340
G01 X6.2476 Y-52.8270
G01 X6.2635 Y-52.8174
G01 X6.2774 Y-52.8070
G01 X6.2884 Y-52.7969
G01 X6.2983 Y-52.7871
G01 X7.2037 Y-52.7871
G01 X7.8439 Y-53.4273
G01 X7.8439 Y-54.3327
G01 X7.2037 Y-54.9729
G01 X6.2983 Y-54.9729
G01 X6.0586 Y-54.7332
G01 X6.0446 Y-54.7209
G01 X6.0326 Y-54.7121
G01 X6.0188 Y-54.7037
G01 X5.9997 Y-54.6948
G01 X5.9856 Y-54.6899
G01 X5.9688 Y-54.6856
G01 X5.9492 Y-54.6829
G01 X5.9355 Y-54.6822
G01 X5.9081 Y-54.6822
G01 X5.9017 Y-54.6776
G01 X5.8889 Y-54.6700
G01 X5.8709 Y-54.6615
G01 X5.8534 Y-54.6554
G01 X5.8389 Y-54.6519
G01 X5.8241 Y-54.6496
G01 X5.8043 Y-54.6485
G01 X5.7845 Y-54.6496
G01 X5.7698 Y-54.6519
G01 X5.7553 Y-54.6554
G01 X5.7354 Y-54.6624
G01 X5.7209 Y-54.6694
G01 X5.7059 Y-54.6783
G01 X5.6920 Y-54.6887
G01 X5.6791 Y-54.7003
G01 X4.1420 Y-56.2375
G01 X4.1303 Y-56.2504
G01 X4.1214 Y-56.2623
G01 X4.1099 Y-56.2814
G01 X4.1036 Y-56.2949
G01 X4.0978 Y-56.3113
G01 X4.0935 Y-56.3281
G01 X4.0911 Y-56.3441
G01 X4.0901 Y-56.3627
G01 X4.0901 Y-60.5530
G01 X4.0910 Y-60.5703
G01 X4.0935 Y-60.5875
G01 X4.0978 Y-60.6044
G01 X4.1027 Y-60.6184
G01 X4.1110 Y-60.6364
G01 X4.1200 Y-60.6513
G01 X4.1303 Y-60.6653
G01 X4.1420 Y-60.6782
G01 X6.4860 Y-63.0222
G01 X6.4989 Y-63.0339
G01 X6.5129 Y-63.0442
G01 X6.5278 Y-63.0532
G01 X6.5458 Y-63.0615
G01 X6.5598 Y-63.0664
G01 X6.5767 Y-63.0707
G01 X6.5939 Y-63.0732
G01 X6.6100 Y-63.0741
G01 X6.8908 Y-63.0741
G01 X6.9057 Y-63.0734
G01 X6.9277 Y-63.0701
G01 X6.9422 Y-63.0664
G01 X6.9585 Y-63.0606
G01 X6.9764 Y-63.0520
G01 X6.9891 Y-63.0442
G01 X7.0021 Y-63.0346
G01 X7.0160 Y-63.0222
G01 X8.6840 Y-61.3542
G01 X15.3970 Y-61.3542
G01 X16.9380 Y-62.8952
G01 X16.9519 Y-62.9076
G01 X16.9649 Y-62.9172
G01 X16.9776 Y-62.9250
G01 X16.9955 Y-62.9336
G01 X17.0118 Y-62.9394
G01 X17.0263 Y-62.9431
G01 X17.0483 Y-62.9464
G01 X17.0632 Y-62.9471
G01 X17.6703 Y-62.9471
G01 X18.3849 Y-63.6617
G01 X18.3850 Y-64.3092
G01 X18.3858 Y-64.3241
G01 X18.3879 Y-64.3389
G01 X18.3926 Y-64.3582
G01 X18.3994 Y-64.3768
G01 X18.4058 Y-64.3902
G01 X18.4135 Y-64.4031
G01 X18.4251 Y-64.4191
G01 X18.4368 Y-64.4320
G01 X19.3506 Y-65.3458
G01 X19.3635 Y-65.3575
G01 X19.3796 Y-65.3692
G01 X19.3924 Y-65.3768
G01 X19.4058 Y-65.3832
G01 X19.4245 Y-65.3901
G01 X19.4413 Y-65.3943
G01 X19.4561 Y-65.3965
G01 X19.4759 Y-65.3977
G01 X28.3170 Y-65.3977
G01 X28.3344 Y-65.3968
G01 X28.3492 Y-65.3947
G01 X28.3708 Y-65.3893
G01 X28.3848 Y-65.3842
G01 X28.4005 Y-65.3768
G01 X28.4154 Y-65.3679
G01 X28.4284 Y-65.3583
G01 X28.4422 Y-65.3458
G01 X28.4539 Y-65.3330
G01 X28.4643 Y-65.3190
G01 X28.4732 Y-65.3041
G01 X28.4806 Y-65.2884
G01 X28.4865 Y-65.2720
G01 X28.4907 Y-65.2552
G01 X28.4932 Y-65.2380
G01 X28.4941 Y-65.2206
G01 X28.4932 Y-65.2033
G01 X28.4907 Y-65.1861
G01 X28.4865 Y-65.1692
G01 X28.4806 Y-65.1529
G01 X28.4732 Y-65.1372
G01 X28.4643 Y-65.1223
G01 X28.4554 Y-65.1102
G01 X28.4422 Y-65.0954
G01 X27.6426 Y-64.2958
G01 X27.6297 Y-64.2841
G01 X27.6137 Y-64.2725
G01 X27.6009 Y-64.2648
G01 X27.5851 Y-64.2574
G01 X27.5688 Y-64.2516
G01 X27.5543 Y-64.2479
G01 X27.5323 Y-64.2446
G01 X27.5174 Y-64.2439
G01 X26.8325 Y-64.2439
G01 X25.5971 Y-63.0085
G01 X25.5971 Y-61.2615
G01 X26.8325 Y-60.0261
G01 X26.9465 Y-60.0260
G01 X26.9638 Y-60.0249
G01 X26.9786 Y-60.0227
G01 X26.9930 Y-60.0191
G01 X27.0140 Y-60.0116
G01 X27.0275 Y-60.0052
G01 X27.0424 Y-59.9962
G01 X27.0582 Y-59.9843
G01 X27.0692 Y-59.9742
G01 X27.0809 Y-59.9613
G01 X27.0912 Y-59.9474
G01 X27.0990 Y-59.9346
G01 X27.1085 Y-59.9145
G01 X27.1134 Y-59.9004
G01 X27.1177 Y-59.8836
G01 X27.1202 Y-59.8664
G01 X27.1211 Y-59.8502
G01 X27.1211 Y-59.5296
G01 X27.1203 Y-59.5135
G01 X27.1177 Y-59.4951
G01 X27.1127 Y-59.4759
G01 X27.1076 Y-59.4619
G01 X27.1013 Y-59.4483
G01 X27.0905 Y-59.4302
G01 X27.0809 Y-59.4173
G01 X27.0692 Y-59.4044
G01 X21.5466 Y-53.8818
G01 X21.5347 Y-53.8709
G01 X21.5198 Y-53.8598
G01 X21.5070 Y-53.8520
G01 X21.4869 Y-53.8425
G01 X21.4728 Y-53.8376
G01 X21.4559 Y-53.8333
G01 X21.4387 Y-53.8308
G01 X21.4238 Y-53.8300
G01 X20.5967 Y-53.8299
G01 X19.8821 Y-53.1153
G01 X19.8821 Y-52.1047
G01 X20.5967 Y-51.3901
G01 X21.6073 Y-51.3901
G01 X22.3219 Y-52.1047
G01 X22.3220 Y-52.9318
G01 X22.3228 Y-52.9467
G01 X22.3253 Y-52.9639
G01 X22.3296 Y-52.9808
G01 X22.3345 Y-52.9949
G01 X22.3440 Y-53.0150
G01 X22.3518 Y-53.0278
G01 X22.3621 Y-53.0417
G01 X22.3738 Y-53.0546
G01 X28.2909 Y-58.9717
G01 X28.2909 Y-59.8502
G01 X28.2918 Y-59.8664
G01 X28.2939 Y-59.8811
G01 X28.2986 Y-59.9004
G01 X28.3044 Y-59.9168
G01 X28.3107 Y-59.9303
G01 X28.3208 Y-59.9474
G01 X28.3311 Y-59.9613
G01 X28.3428 Y-59.9742
G01 X28.3557 Y-59.9859
G01 X28.3676 Y-59.9948
G01 X28.3867 Y-60.0063
G01 X28.4002 Y-60.0126
G01 X28.4166 Y-60.0184
G01 X28.4359 Y-60.0231
G01 X28.4506 Y-60.0252
G01 X28.4655 Y-60.0260
G01 X28.5795 Y-60.0261
G01 X29.8149 Y-61.2615
G01 X29.8149 Y-63.0085
G01 X29.1627 Y-63.6608
G01 X29.1510 Y-63.6737
G01 X29.1413 Y-63.6866
G01 X29.1317 Y-63.7025
G01 X29.1243 Y-63.7183
G01 X29.1184 Y-63.7346
G01 X29.1147 Y-63.7491
G01 X29.1118 Y-63.7674
G01 X29.1109 Y-63.7836
G01 X29.1120 Y-63.8058
G01 X29.1142 Y-63.8206
G01 X29.1184 Y-63.8374
G01 X29.1243 Y-63.8538
G01 X29.1317 Y-63.8695
G01 X29.1406 Y-63.8844
G01 X29.1510 Y-63.8983
G01 X29.1627 Y-63.9112
G01 X29.1746 Y-63.9221
G01 X29.1895 Y-63.9332
G01 X29.2023 Y-63.9410
G01 X29.2224 Y-63.9505
G01 X29.2365 Y-63.9554
G01 X29.2533 Y-63.9597
G01 X29.2705 Y-63.9622
G01 X29.2879 Y-63.9631
G01 X35.7724 Y-63.9631
G01 X35.7922 Y-63.9619
G01 X35.8069 Y-63.9597
G01 X35.8238 Y-63.9554
G01 X35.8401 Y-63.9496
G01 X35.8537 Y-63.9433
G01 X35.8718 Y-63.9325
G01 X35.8847 Y-63.9229
G01 X35.8976 Y-63.9112
G01 X36.5959 Y-63.2128
G01 X36.6059 Y-63.2017
G01 X36.6162 Y-63.1878
G01 X36.6252 Y-63.1729
G01 X36.6326 Y-63.1571
G01 X36.6384 Y-63.1408
G01 X36.6427 Y-63.1239
G01 X36.6452 Y-63.1067
G01 X36.6460 Y-63.0918
G01 X36.6461 Y-62.5854
G01 X36.6449 Y-62.5669
G01 X36.6427 Y-62.5521
G01 X36.6391 Y-62.5376
G01 X36.6326 Y-62.5189
G01 X36.6252 Y-62.5032
G01 X36.6148 Y-62.4863
G01 X36.6059 Y-62.4743
G01 X36.5942 Y-62.4614
G01 X36.0111 Y-61.8783
G01 X36.0111 Y-61.0524
G01 X36.0102 Y-61.0363
G01 X36.0071 Y-61.0167
G01 X36.0034 Y-61.0022
G01 X35.9985 Y-60.9881
G01 X35.9907 Y-60.9712
G01 X35.9798 Y-60.9532
G01 X35.9709 Y-60.9413
G01 X35.9592 Y-60.9284
G01 X32.4551 Y-57.4243
G01 X32.4551 Y-57.0550
G01 X32.4542 Y-57.0376
G01 X32.4514 Y-57.0192
G01 X32.4474 Y-57.0036
G01 X32.4425 Y-56.9895
G01 X32.4342 Y-56.9715
G01 X32.4238 Y-56.9546
G01 X32.4149 Y-56.9427
G01 X32.4049 Y-56.9316
G01 X32.3903 Y-56.9181
G01 X32.3743 Y-56.9065
G01 X32.3615 Y-56.8988
G01 X32.3480 Y-56.8924
G01 X32.3281 Y-56.8852
G01 X32.3281 Y-53.9625
G01 X32.4820 Y-53.8085
G01 X32.4820 Y-54.1340
G01 X32.4824 Y-54.1401
G01 X32.4842 Y-54.1485
G01 X32.4873 Y-54.1565
G01 X32.4918 Y-54.1638
G01 X32.4975 Y-54.1702
G01 X32.5032 Y-54.1749
G01 X32.5106 Y-54.1792
G01 X32.5187 Y-54.1822
G01 X32.5271 Y-54.1838
G01 X34.5640 Y-54.1840
G01 X34.5701 Y-54.1836
G01 X34.5773 Y-54.1822
G01 X34.5854 Y-54.1792
G01 X34.5918 Y-54.1756
G01 X34.5985 Y-54.1702
G01 X34.6034 Y-54.1648
G01 X34.6075 Y-54.1586
G01 X34.6111 Y-54.1508
G01 X34.6130 Y-54.1438
G01 X34.6139 Y-54.1365
G01 X34.6140 Y-53.2951
G01 X34.7679 Y-53.2951
G01 X34.7679 Y-56.8779
G01 X33.9906 Y-56.8779
G01 X33.9732 Y-56.8788
G01 X33.9560 Y-56.8813
G01 X33.9392 Y-56.8856
G01 X33.9228 Y-56.8914
G01 X33.9071 Y-56.8988
G01 X33.8943 Y-56.9065
G01 X33.8792 Y-56.9174
G01 X33.8672 Y-56.9281
G01 X33.8522 Y-56.9446
G01 X33.8434 Y-56.9566
G01 X33.8344 Y-56.9715
G01 X33.8270 Y-56.9872
G01 X33.8212 Y-57.0036
G01 X33.8169 Y-57.0204
G01 X33.8144 Y-57.0376
G01 X33.8135 Y-57.0550
G01 X33.8143 Y-57.0711
G01 X33.8169 Y-57.0895
G01 X33.8205 Y-57.1040
G01 X33.8280 Y-57.1250
G01 X33.8344 Y-57.1385
G01 X33.8434 Y-57.1534
G01 X33.8537 Y-57.1673
G01 X33.8645 Y-57.1793
G01 X34.8527 Y-58.1675
G01 X34.8666 Y-58.1800
G01 X34.8796 Y-58.1896
G01 X34.8967 Y-58.1996
G01 X34.9125 Y-58.2068
G01 X34.9265 Y-58.2118
G01 X34.9410 Y-58.2155
G01 X34.9606 Y-58.2185
G01 X34.9779 Y-58.2194
G01 X34.9953 Y-58.2185
G01 X35.0125 Y-58.2160
G01 X35.0293 Y-58.2118
G01 X35.0457 Y-58.2059
G01 X35.0614 Y-58.1985
G01 X35.0783 Y-58.1881
G01 X35.0903 Y-58.1792
G01 X35.1014 Y-58.1692
G01 X35.1132 Y-58.1565
G01 X35.1252 Y-58.1407
G01 X35.1341 Y-58.1258
G01 X35.1424 Y-58.1078
G01 X35.1474 Y-58.0937
G01 X35.1511 Y-58.0793
G01 X35.1541 Y-58.0597
G01 X35.1550 Y-58.0423
G01 X35.1550 Y-51.7412
G01 X35.1538 Y-51.7214
G01 X35.1516 Y-51.7066
G01 X35.1474 Y-51.6898
G01 X35.1415 Y-51.6734
G01 X35.1352 Y-51.6599
G01 X35.1245 Y-51.6418
G01 X35.1148 Y-51.6288
G01 X35.1048 Y-51.6177
G01 X35.0702 Y-51.5830
G01 X35.0573 Y-51.5713
G01 X35.0423 Y-51.5603
G01 X35.0285 Y-51.5521
G01 X35.0150 Y-51.5456
G01 X34.9964 Y-51.5388
G01 X34.9795 Y-51.5345
G01 X34.9648 Y-51.5323
G01 X34.9450 Y-51.5311
G01 X34.9276 Y-51.5320
G01 X34.9129 Y-51.5341
G01 X34.8936 Y-51.5388
G01 X34.8772 Y-51.5446
G01 X34.8637 Y-51.5510
G01 X34.8466 Y-51.5610
G01 X34.8327 Y-51.5713
G01 X34.8216 Y-51.5813
G01 X34.8081 Y-51.5959
G01 X34.7978 Y-51.6098
G01 X34.7900 Y-51.6226
G01 X34.7809 Y-51.6416
G01 X34.7756 Y-51.6568
G01 X34.7713 Y-51.6737
G01 X34.7688 Y-51.6909
G01 X34.7679 Y-51.7082
G01 X34.7679 Y-52.9409
G01 X34.6140 Y-52.9409
G01 X34.6139 Y-52.0995
G01 X34.6130 Y-52.0922
G01 X34.6111 Y-52.0852
G01 X34.6081 Y-52.0784
G01 X34.6042 Y-52.0722
G01 X34.5994 Y-52.0666
G01 X34.5928 Y-52.0611
G01 X34.5865 Y-52.0573
G01 X34.5797 Y-52.0545
G01 X34.5713 Y-52.0525
G01 X34.5640 Y-52.0520
G01 X32.5320 Y-52.0520
G01 X32.5259 Y-52.0524
G01 X32.5210 Y-52.0532
G01 X32.5129 Y-52.0558
G01 X32.5063 Y-52.0591
G01 X32.4993 Y-52.0641
G01 X32.4941 Y-52.0693
G01 X32.4898 Y-52.0753
G01 X32.4858 Y-52.0829
G01 X32.4835 Y-52.0899
G01 X32.4821 Y-52.0983
G01 X32.4820 Y-52.5597
G01 X32.3818 Y-52.5598
G01 X32.3281 Y-52.5625
G01 X32.3281 Y-51.4670
G01 X32.3273 Y-51.4509
G01 X32.3247 Y-51.4324
G01 X32.3197 Y-51.4133
G01 X32.3146 Y-51.3992
G01 X32.3083 Y-51.3857
G01 X32.2982 Y-51.3686
G01 X32.2863 Y-51.3528
G01 X32.2762 Y-51.3418
G01 X32.2652 Y-51.3317
G01 X32.2494 Y-51.3198
G01 X32.2323 Y-51.3097
G01 X32.2165 Y-51.3025
G01 X32.2024 Y-51.2976
G01 X32.1879 Y-51.2939
G01 X32.1684 Y-51.2908
G01 X32.1510 Y-51.2899
G01 X29.7380 Y-51.2899
G01 X29.7206 Y-51.2908
G01 X29.7034 Y-51.2933
G01 X29.6866 Y-51.2976
G01 X29.6702 Y-51.3034
G01 X29.6524 Y-51.3120
G01 X29.6396 Y-51.3198
G01 X29.6276 Y-51.3286
G01 X29.6128 Y-51.3418
G01 X29.6011 Y-51.3547
G01 X29.5908 Y-51.3686
[OG01 X29.5807 Y-51.3857
G01 X29.5744 Y-51.3992
G01 X29.5693 Y-51.4133
G01 X29.5646 Y-51.4312
G01 X29.5618 Y-51.4496
G01 X29.5609 Y-51.4658
G01 X29.5609 Y-51.6516
G01 X29.5618 Y-51.6677
G01 X29.5643 Y-51.6849
G01 X29.5686 Y-51.7017
G01 X29.5749 Y-51.7192
G01 X29.5818 Y-51.7338
G01 X29.5908 Y-51.7487
G01 X29.6011 Y-51.7627
G01 X29.6119 Y-51.7747
G01 X30.0689 Y-52.2317
G01 X30.0689 Y-53.2423
G01 X29.3543 Y-53.9569
G01 X28.3437 Y-53.9569
G01 X27.6291 Y-53.2423
G01 X27.6291 Y-52.2317
G01 X28.0861 Y-51.7747
G01 X28.0969 Y-51.7627
G01 X28.1072 Y-51.7487
G01 X28.1162 Y-51.7338
G01 X28.1241 Y-51.7170
G01 X28.1294 Y-51.7017
G01 X28.1337 Y-51.6849
G01 X28.1362 Y-51.6677
G01 X28.1371 Y-51.6503
G01 X28.1371 Y-50.2831
G01 X28.5541 Y-49.8661
G01 X32.1510 Y-49.8661
G01 X32.1671 Y-49.8653
G01 X32.1879 Y-49.8621
G01 X32.2024 Y-49.8584
G01 X32.2188 Y-49.8526
G01 X32.2366 Y-49.8440
G01 X32.2494 Y-49.8362
G01 X32.2633 Y-49.8259
G01 X32.2779 Y-49.8124
G01 X32.2879 Y-49.8013
G01 X32.2982 Y-49.7874
G01 X32.3083 Y-49.7703
G01 X32.3146 Y-49.7568
G01 X32.3201 Y-49.7416
G01 X32.3251 Y-49.7211
G01 X32.3272 Y-49.7064
G01 X32.3281 Y-49.6902
G01 X32.3281 Y-49.3581
G01 X34.7679 Y-49.3581
G01 X34.7679 Y-49.6859
G01 X34.7691 Y-49.7057
G01 X34.7713 Y-49.7204
G01 X34.7756 Y-49.7373
G01 X34.7814 Y-49.7536
G01 X34.7888 Y-49.7693
G01 X34.7978 Y-49.7843
G01 X34.8081 Y-49.7982
G01 X34.8198 Y-49.8111
G01 X34.8317 Y-49.8220
G01 X34.8487 Y-49.8344
G01 X34.8615 Y-49.8420
G01 X34.8772 Y-49.8495
G01 X34.8936 Y-49.8553
G01 X34.9081 Y-49.8590
G01 X34.9289 Y-49.8622
G01 X34.9450 Y-49.8629
G01 X35.3638 Y-49.8629
G01 X36.4802 Y-50.9794
G01 X36.4922 Y-50.9903
G01 X36.5091 Y-51.0027
G01 X36.5220 Y-51.0104
G01 X36.5377 Y-51.0178
G01 X36.5540 Y-51.0236
G01 X36.5685 Y-51.0273
G01 X36.5905 Y-51.0306
G01 X36.6054 Y-51.0313
G01 X36.6228 Y-51.0304
G01 X36.6400 Y-51.0279
G01 X36.6545 Y-51.0243
G01 X36.6754 Y-51.0168
G01 X36.6889 Y-51.0104
G01 X36.7048 Y-51.0007
G01 X36.7196 Y-50.9895
G01 X36.7306 Y-50.9794
G01 X36.7407 Y-50.9684
G01 X36.7526 Y-50.9526
G01 X36.7616 Y-50.9377
G01 X36.7690 Y-50.9220
G01 X36.7755 Y-50.9032
G01 X36.7791 Y-50.8887
G01 X36.7813 Y-50.8740
G01 X36.7825 Y-50.8554
G01 X36.7825 Y-45.8277
G01 X36.7813 Y-45.8079
G01 X36.7791 Y-45.7932
G01 X36.7749 Y-45.7763
G01 X36.7680 Y-45.7577
G01 X36.7616 Y-45.7443
G01 X36.7540 Y-45.7314
G01 X36.7423 Y-45.7154
G01 X36.7306 Y-45.7025
G01 X35.4837 Y-44.4556
G01 X35.4708 Y-44.4439
G01 X35.4588 Y-44.4350
G01 X35.4397 Y-44.4235
G01 X35.4262 Y-44.4172
G01 X35.4099 Y-44.4113
G01 X35.3930 Y-44.4071
G01 X35.3770 Y-44.4047
G01 X35.3585 Y-44.4037
G01 X31.5423 Y-44.4037
G01 X31.5249 Y-44.4046
G01 X31.5053 Y-44.4076
G01 X31.4909 Y-44.4113
G01 X31.4745 Y-44.4172
G01 X31.4588 Y-44.4246
G01 X31.4460 Y-44.4322
G01 X31.4281 Y-44.4455
G01 X31.4171 Y-44.4556
G01 X30.9527 Y-44.9199
G01 X30.0473 Y-44.9199
G01 X29.4071 Y-44.2797
G01 X29.4071 Y-43.3743
G01 X30.0473 Y-42.7341
G01 X30.9527 Y-42.7341
G01 X31.4006 Y-43.1820
G01 X31.4116 Y-43.1921
G01 X31.4295 Y-43.2053
G01 X31.4424 Y-43.2129
G01 X31.4581 Y-43.2204
G01 X31.4744 Y-43.2262
G01 X31.4889 Y-43.2299
G01 X31.5097 Y-43.2331
G01 X31.5258 Y-43.2339
G01 X35.9163 Y-43.2339
G01 X37.8687 Y-45.1862
G01 X37.8807 Y-45.1970
G01 X37.8926 Y-45.2059
G01 X37.9095 Y-45.2163
G01 X37.9275 Y-45.2246
G01 X37.9416 Y-45.2295
G01 X37.9585 Y-45.2338
G01 X37.9781 Y-45.2365
G01 X37.9930 Y-45.2372
G01 X38.0104 Y-45.2363
G01 X38.0299 Y-45.2332
G01 X38.0444 Y-45.2295
G01 X38.0585 Y-45.2246
G01 X38.0765 Y-45.2163
G01 X38.0934 Y-45.2059
G01 X38.1053 Y-45.1970
G01 X38.1164 Y-45.1870
G01 X38.1299 Y-45.1724
G01 X38.1415 Y-45.1564
G01 X38.1492 Y-45.1436
G01 X38.1556 Y-45.1301
G01 X38.1624 Y-45.1115
G01 X38.1671 Y-45.0922
G01 X38.1692 Y-45.0775
G01 X38.1701 Y-45.0601
G01 X38.1701 Y-44.5023
G01 X39.3788 Y-43.2935
G01 X39.3905 Y-43.2807
G01 X39.4008 Y-43.2667
G01 X39.4098 Y-43.2518
G01 X39.4177 Y-43.2349
G01 X39.4230 Y-43.2197
G01 X39.4273 Y-43.2029
G01 X39.4298 Y-43.1857
G01 X39.4307 Y-43.1683
G01 X39.4307 Y-41.7835
G01 X40.9122 Y-40.3020
G01 X40.9254 Y-40.2872
G01 X40.9342 Y-40.2751
G01 X40.9420 Y-40.2624
G01 X40.9511 Y-40.2434
G01 X40.9564 Y-40.2282
G01 X40.9601 Y-40.2137
G01 X40.9634 Y-40.1917
G01 X40.9641 Y-40.1768
G01 X40.9641 Y-39.5317
G01 X41.6787 Y-38.8171
G01 X42.6893 Y-38.8171
G01 X43.4039 Y-39.5317
G01 X43.4039 Y-40.5423
G01 X42.6893 Y-41.2569
G01 X42.0418 Y-41.2570
G01 X42.0269 Y-41.2578
G01 X42.0121 Y-41.2599
G01 X41.9928 Y-41.2646
G01 X41.9765 Y-41.2704
G01 X41.9630 Y-41.2767
G01 X41.9448 Y-41.2875
G01 X41.9319 Y-41.2971
G01 X41.9190 Y-41.3088
G01 X40.9064 Y-42.3214
G01 X40.8947 Y-42.3343
G01 X40.8844 Y-42.3483
G01 X40.8766 Y-42.3610
G01 X40.8671 Y-42.3812
G01 X40.8622 Y-42.3952
G01 X40.8579 Y-42.4121
G01 X40.8554 Y-42.4293
G01 X40.8545 Y-42.4454
G01 X40.8545 Y-43.8314
G01 X39.6458 Y-45.0402
G01 X39.6326 Y-45.0550
G01 X39.6238 Y-45.0670
G01 X39.6160 Y-45.0798
G01 X39.6074 Y-45.0976
G01 X39.6012 Y-45.1152
G01 X39.5973 Y-45.1308
G01 X39.5951 Y-45.1456
G01 X39.5939 Y-45.1654
G01 X39.5939 Y-54.6077
G01 X39.5948 Y-54.6251
G01 X39.5969 Y-54.6399
G01 X39.6023 Y-54.6615
G01 X39.6084 Y-54.6777
G01 X39.6148 Y-54.6912
G01 X39.6225 Y-54.7040
G01 X39.6341 Y-54.7201
G01 X39.6458 Y-54.7329
G01 X40.9948 Y-56.0819
G01 X41.0076 Y-56.0936
G01 X41.0216 Y-56.1039
G01 X41.0365 Y-56.1129
G01 X41.0545 Y-56.1212
G01 X41.0686 Y-56.1261
G01 X41.0854 Y-56.1304
G01 X41.1026 Y-56.1329
G01 X41.1200 Y-56.1338
G01 X44.5556 Y-56.1338
G01 X46.1100 Y-57.6882
G01 X46.1229 Y-57.6999
G01 X46.1349 Y-57.7088
G01 X46.1540 Y-57.7203
G01 X46.1698 Y-57.7275
G01 X46.1838 Y-57.7324
G01 X46.1983 Y-57.7361
G01 X46.2179 Y-57.7392
G01 X46.2352 Y-57.7401
G01 X47.9399 Y-57.7401
G01 X49.0860 Y-58.8862
G01 X49.0860 Y-60.1923
G01 X49.0867 Y-60.2084
G01 X49.0899 Y-60.2292
G01 X49.0936 Y-60.2437
G01 X49.0986 Y-60.2578
G01 X49.1069 Y-60.2758
G01 X49.1173 Y-60.2927
G01 X49.1262 Y-60.3046
G01 X49.1362 Y-60.3157
G01 X49.1507 Y-60.3292
G01 X49.1668 Y-60.3408
G01 X49.1796 Y-60.3485
G01 X49.1931 Y-60.3549
G01 X49.2128 Y-60.3621
G01 X49.2285 Y-60.3660
G01 X49.2433 Y-60.3682
G01 X49.2631 Y-60.3694
G01 X49.2829 Y-60.3682
G01 X49.2976 Y-60.3660
G01 X49.3121 Y-60.3624
G01 X49.3308 Y-60.3559
G01 X49.3487 Y-60.3472
G01 X49.3614 Y-60.3395
G01 X49.3754 Y-60.3292
G01 X49.3883 Y-60.3175
G01 X49.9301 Y-59.7757
G01 X49.9409 Y-59.7637
G01 X49.9512 Y-59.7497
G01 X49.9602 Y-59.7348
G01 X49.9681 Y-59.7180
G01 X49.9734 Y-59.7027
G01 X49.9777 Y-59.6859
G01 X49.9802 Y-59.6687
G01 X49.9811 Y-59.6513
G01 X49.9811 Y-58.5124
G01 X49.9802 Y-58.4963
G01 X49.9777 Y-58.4791
G01 X49.9734 Y-58.4622
G01 X49.9685 Y-58.4481
G01 X49.9590 Y-58.4280
G01 X49.9512 Y-58.4152
G01 X49.9401 Y-58.4003
G01 X49.9292 Y-58.3884
G01 X48.7246 Y-57.1838
G01 X48.7117 Y-57.1721
G01 X48.6998 Y-57.1632
G01 X48.6818 Y-57.1523
G01 X48.6649 Y-57.1445
G01 X48.6508 Y-57.1396
G01 X48.6363 Y-57.1359
G01 X48.6167 Y-57.1328
G01 X48.5994 Y-57.1319
G01 X46.4667 Y-57.1319
G01 X45.4091 Y-56.0743
G01 X45.4091 Y-54.4587
G01 X45.4082 Y-54.4413
G01 X45.4057 Y-54.4241
G01 X45.4014 Y-54.4073
G01 X45.3965 Y-54.3932
G01 X45.3882 Y-54.3752
G01 X45.3778 Y-54.3583
G01 X45.3689 Y-54.3463
G01 X45.3581 Y-54.3343
G01 X44.7741 Y-53.7503
G01 X44.7741 Y-52.9244
G01 X44.7732 Y-52.9083
G01 X44.7707 Y-52.8911
G01 X44.7664 Y-52.8742
G01 X44.7601 Y-52.8567
G01 X44.7532 Y-52.8421
G01 X44.7442 Y-52.8272
G01 X44.7339 Y-52.8133
G01 X44.7222 Y-52.8004
G01 X43.3771 Y-51.4553
G01 X43.3771 Y-49.8160
G01 X43.3762 Y-49.7986
G01 X43.3737 Y-49.7814
G01 X43.3694 Y-49.7646
G01 X43.3626 Y-49.7460
G01 X43.3562 Y-49.7325
G01 X43.3485 Y-49.7197
G01 X43.3369 Y-49.7037
G01 X43.3234 Y-49.6891
G01 X43.3123 Y-49.6791
G01 X43.3004 Y-49.6702
G01 X43.2835 Y-49.6598
G01 X43.2666 Y-49.6519
G01 X43.2514 Y-49.6466
G01 X43.2346 Y-49.6423
G01 X43.2174 Y-49.6398
G01 X43.2025 Y-49.6390
G01 X42.9961 Y-49.6389
G01 X42.9960 Y-46.8271
G01 X42.9952 Y-46.8122
G01 X42.9929 Y-46.7963
G01 X42.9877 Y-46.7759
G01 X42.9826 Y-46.7618
G01 X42.9752 Y-46.7461
G01 X42.9662 Y-46.7312
G01 X42.9574 Y-46.7192
G01 X42.9424 Y-46.7027
G01 X42.9313 Y-46.6927
G01 X42.9174 Y-46.6824
G01 X42.9003 Y-46.6723
G01 X42.8868 Y-46.6660
G01 X42.8716 Y-46.6605
G01 X42.8536 Y-46.6559
G01 X42.8339 Y-46.6532
G01 X42.8190 Y-46.6525
G01 X42.8041 Y-46.6532
G01 X42.7845 Y-46.6559
G01 X42.7676 Y-46.6602
G01 X42.7490 Y-46.6670
G01 X42.7355 Y-46.6734
G01 X42.7227 Y-46.6811
G01 X42.7067 Y-46.6927
G01 X42.6938 Y-46.7044
G01 X42.4398 Y-46.9584
G01 X42.4289 Y-46.9703
G01 X42.4165 Y-46.9873
G01 X42.4088 Y-47.0001
G01 X42.4014 Y-47.0159
G01 X42.3949 Y-47.0346
G01 X42.3913 Y-47.0491
G01 X42.3888 Y-47.0663
G01 X42.3879 Y-47.0836
G01 X42.3879 Y-52.1596
G01 X42.3888 Y-52.1757
G01 X42.3913 Y-52.1929
G01 X42.3956 Y-52.2097
G01 X42.4005 Y-52.2238
G01 X42.4100 Y-52.2440
G01 X42.4185 Y-52.2577
G01 X42.4297 Y-52.2725
G01 X42.4398 Y-52.2836
G01 X43.0229 Y-52.8667
G01 X43.0229 Y-53.8773
G01 X42.3083 Y-54.5919
G01 X41.2977 Y-54.5919
G01 X40.5831 Y-53.8773
G01 X40.5831 Y-52.8667
G01 X41.1679 Y-52.2818
G01 X41.1779 Y-52.2707
G01 X41.1882 Y-52.2567
G01 X41.1972 Y-52.2418
G01 X41.2036 Y-52.2284
G01 X41.2111 Y-52.2074
G01 X41.2147 Y-52.1929
G01 X41.2172 Y-52.1757
G01 X41.2181 Y-52.1583
G01 X41.2181 Y-46.5257
G01 X42.5767 Y-45.1671
G01 X44.9663 Y-45.1671
G01 X46.4384 Y-46.6392
G01 X46.4522 Y-46.6516
G01 X46.4652 Y-46.6612
G01 X46.4780 Y-46.6690
G01 X46.4959 Y-46.6776
G01 X46.5122 Y-46.6834
G01 X46.5267 Y-46.6871
G01 X46.5475 Y-46.6903
G01 X46.5636 Y-46.6911
G01 X46.9599 Y-46.6911
G01 X46.9599 Y-47.0784
G01 X46.9608 Y-47.0957
G01 X46.9629 Y-47.1105
G01 X46.9676 Y-47.1298
G01 X46.9734 Y-47.1461
G01 X46.9808 Y-47.1618
G01 X46.9898 Y-47.1767
G01 X47.0001 Y-47.1907
G01 X47.0118 Y-47.2036
G01 X47.0247 Y-47.2152
G01 X47.0396 Y-47.2263
G01 X47.0535 Y-47.2345
G01 X47.0670 Y-47.2410
G01 X47.0856 Y-47.2478
G01 X47.1049 Y-47.2525
G01 X47.1196 Y-47.2546
G01 X47.1345 Y-47.2554
G01 X47.1543 Y-47.2546
G01 X47.1739 Y-47.2515
G01 X47.1884 Y-47.2478
G01 X47.2036 Y-47.2424
G01 X47.2226 Y-47.2333
G01 X47.2354 Y-47.2256
G01 X47.2474 Y-47.2168
G01 X47.2613 Y-47.2044
G01 X47.5207 Y-46.9451
G01 X47.8489 Y-46.9451
G01 X47.8489 Y-47.1148
G01 X47.8168 Y-47.1197
G01 X47.7177 Y-47.1446
G01 X47.6192 Y-47.1797
G01 X47.5235 Y-47.2249
G01 X47.4348 Y-47.2780
G01 X47.3497 Y-47.3410
G01 X47.2722 Y-47.4112
G01 X47.2020 Y-47.4887
G01 X47.1411 Y-47.5708
G01 X47.0848 Y-47.6647
G01 X47.0411 Y-47.7571
G01 X47.0059 Y-47.8556
G01 X46.9805 Y-47.9570
G01 X46.9654 Y-48.0581
G01 X46.9600 Y-48.1650
G01 X46.9651 Y-48.2695
G01 X46.9801 Y-48.3705
G01 X47.0059 Y-48.4744
G01 X47.0411 Y-48.5729
G01 X47.0848 Y-48.6653
G01 X47.1411 Y-48.7592
G01 X47.2020 Y-48.8413
G01 X47.2722 Y-48.9188
G01 X47.3497 Y-48.9890
G01 X47.4348 Y-49.0520
G01 X47.5235 Y-49.1051
G01 X47.6192 Y-49.1503
G01 X47.7177 Y-49.1854
G01 X47.8168 Y-49.2103
G01 X47.8489 Y-49.2152
G01 X47.8489 Y-49.3849
G01 X47.5207 Y-49.3849
G01 X47.2622 Y-49.1264
G01 X47.2493 Y-49.1148
G01 X47.2374 Y-49.1058
G01 X47.2205 Y-49.0955
G01 X47.2047 Y-49.0880
G01 X47.1884 Y-49.0822
G01 X47.1715 Y-49.0780
G01 X47.1543 Y-49.0754
G01 X47.1370 Y-49.0746
G01 X47.1196 Y-49.0754
G01 X47.1024 Y-49.0780
G01 X47.0856 Y-49.0822
G01 X47.0715 Y-49.0872
G01 X47.0535 Y-49.0955
G01 X47.0366 Y-49.1058
G01 X47.0247 Y-49.1148
G01 X47.0136 Y-49.1247
G01 X47.0001 Y-49.1393
G01 X46.9885 Y-49.1553
G01 X46.9808 Y-49.1682
G01 X46.9744 Y-49.1816
G01 X46.9672 Y-49.2014
G01 X46.9633 Y-49.2171
G01 X46.9611 Y-49.2318
G01 X46.9599 Y-49.2504
G01 X46.9599 Y-49.5016
G01 X46.9608 Y-49.5177
G01 X46.9633 Y-49.5349
G01 X46.9676 Y-49.5518
G01 X46.9729 Y-49.5670
G01 X46.9808 Y-49.5839
G01 X46.9898 Y-49.5988
G01 X47.0001 Y-49.6127
G01 X47.0118 Y-49.6256
G01 X49.1189 Y-51.7327
G01 X49.1189 Y-52.5394
G01 X49.1197 Y-52.5555
G01 X49.1223 Y-52.5739
G01 X49.1266 Y-52.5908
G01 X49.1324 Y-52.6071
G01 X49.1398 Y-52.6228
G01 X49.1488 Y-52.6377
G01 X49.1591 Y-52.6517
G01 X49.1708 Y-52.6646
G01 X49.1837 Y-52.6762
G01 X49.1976 Y-52.6866
G01 X49.2104 Y-52.6943
G01 X49.2305 Y-52.7038
G01 X49.2446 Y-52.7088
G01 X49.2614 Y-52.7130
G01 X49.2786 Y-52.7156
G01 X49.2935 Y-52.7164
G01 X49.3158 Y-52.7153
G01 X49.3305 Y-52.7130
G01 X49.3474 Y-52.7088
G01 X49.3637 Y-52.7030
G01 X49.3773 Y-52.6966
G01 X49.3964 Y-52.6852
G01 X49.4083 Y-52.6762
G01 X49.4212 Y-52.6646
G01 X50.0077 Y-52.0780
G01 X50.0077 Y-52.3382
G01 X49.9728 Y-52.3593
G01 X49.8888 Y-52.4218
G01 X49.8122 Y-52.4912
G01 X49.7412 Y-52.5697
G01 X49.6797 Y-52.6528
G01 X49.6259 Y-52.7425
G01 X49.5811 Y-52.8371
G01 X49.5459 Y-52.9356
G01 X49.5205 Y-53.0370
G01 X49.5054 Y-53.1381
G01 X49.5000 Y-53.2450
G01 X49.5051 Y-53.3495
G01 X49.5201 Y-53.4505
G01 X49.5463 Y-53.5556
G01 X49.5811 Y-53.6529
G01 X49.6248 Y-53.7453
G01 X49.6797 Y-53.8372
G01 X49.7436 Y-53.9231
G01 X49.8122 Y-53.9988
G01 X49.8888 Y-54.0682
G01 X49.9758 Y-54.1327
G01 X50.0635 Y-54.1851
G01 X50.1569 Y-54.2294
G01 X50.2577 Y-54.2654
G01 X50.3568 Y-54.2903
G01 X50.3889 Y-54.2952
G01 X50.3889 Y-54.4649
G01 X50.2441 Y-54.4650
G01 X50.2292 Y-54.4658
G01 X50.2145 Y-54.4679
G01 X50.1964 Y-54.4722
G01 X50.1788 Y-54.4784
G01 X50.1631 Y-54.4858
G01 X50.1482 Y-54.4948
G01 X50.1362 Y-54.5036
G01 X50.1197 Y-54.5186
G01 X50.1097 Y-54.5297
G01 X50.0987 Y-54.5446
G01 X50.0904 Y-54.5585
G01 X50.0840 Y-54.5720
G01 X50.0772 Y-54.5906
G01 X50.0729 Y-54.6074
G01 X50.0707 Y-54.6222
G01 X50.0695 Y-54.6420
G01 X50.0704 Y-54.6593
G01 X50.0725 Y-54.6741
G01 X50.0772 Y-54.6934
G01 X50.0830 Y-54.7097
G01 X50.0893 Y-54.7233
G01 X50.1008 Y-54.7424
G01 X50.1097 Y-54.7543
G01 X50.1214 Y-54.7672
G01 X51.1374 Y-55.7832
G01 X51.1503 Y-55.7949
G01 X51.1663 Y-55.8065
G01 X51.1792 Y-55.8142
G01 X51.1926 Y-55.8206
G01 X51.2101 Y-55.8271
G01 X51.2305 Y-55.8321
G01 X51.2453 Y-55.8342
G01 X51.2626 Y-55.8351
G01 X69.0343 Y-55.8351
G01 X70.6992 Y-57.5000
G01 X70.7140 Y-57.5131
G01 X70.7260 Y-57.5220
G01 X70.7398 Y-57.5303
G01 X70.7566 Y-57.5383
G01 X70.7730 Y-57.5442
G01 X70.7898 Y-57.5484
G01 X70.8095 Y-57.5512
G01 X70.8244 Y-57.5518
G01 X70.8393 Y-57.5512
G01 X70.8565 Y-57.5488
G01 X70.8758 Y-57.5442
G01 X70.8910 Y-57.5388
G01 X70.9100 Y-57.5297
G01 X70.9227 Y-57.5220
G01 X70.9376 Y-57.5108
G01 X70.9496 Y-57.5000
G01 X71.0285 Y-57.4211
G01 X72.7755 Y-57.4211
G01 X74.0109 Y-58.6565
G01 X74.0109 Y-60.4035
G01 X72.9127 Y-61.5018
G01 X72.9010 Y-61.5147
G01 X72.8913 Y-61.5276
G01 X72.8806 Y-61.5457
G01 X72.8743 Y-61.5593
G01 X72.8692 Y-61.5733
G01 X72.8642 Y-61.5925
G01 X72.8615 Y-61.6121
G01 X72.8608 Y-61.6270
G01 X72.8615 Y-61.6419
G01 X72.8642 Y-61.6616
G01 X72.8684 Y-61.6784
G01 X72.8734 Y-61.6925
G01 X72.8817 Y-61.7105
G01 X72.8921 Y-61.7274
G01 X72.9010 Y-61.7393
G01 X72.9110 Y-61.7504
G01 X72.9255 Y-61.7639
G01 X72.9416 Y-61.7755
G01 X72.9544 Y-61.7832
G01 X72.9679 Y-61.7896
G01 X72.9865 Y-61.7964
G01 X73.0057 Y-61.8011
G01 X73.0205 Y-61.8032
G01 X73.0366 Y-61.8041
G01 X75.7380 Y-61.8041
G01 X75.7578 Y-61.8029
G01 X75.7726 Y-61.8007
G01 X75.7894 Y-61.7964
G01 X75.8080 Y-61.7896
G01 X75.8215 Y-61.7832
G01 X75.8343 Y-61.7755
G01 X75.8503 Y-61.7639
G01 X75.8632 Y-61.7522
G01 X80.0024 Y-57.6131
G01 X83.7821 Y-57.6131
G01 X83.7995 Y-57.6122
G01 X83.8154 Y-57.6099
G01 X83.8358 Y-57.6047
G01 X83.8499 Y-57.5996
G01 X83.8656 Y-57.5922
G01 X83.8825 Y-57.5818
G01 X83.8944 Y-57.5729
G01 X83.9064 Y-57.5621
G01 X85.1255 Y-56.3431
G01 X86.8725 Y-56.3431
G01 X88.1079 Y-57.5785
G01 X88.1079 Y-59.3255
G01 X86.8725 Y-60.5609
G01 X85.1255 Y-60.5609
G01 X83.9064 Y-59.3419
G01 X83.8944 Y-59.3311
G01 X83.8825 Y-59.3222
G01 X83.8656 Y-59.3118
G01 X83.8499 Y-59.3044
G01 X83.8358 Y-59.2993
G01 X83.8167 Y-59.2943
G01 X83.7995 Y-59.2918
G01 X83.7821 Y-59.2909
G01 X80.7707 Y-59.2909
G01 X80.7509 Y-59.2921
G01 X80.7361 Y-59.2943
G01 X80.7204 Y-59.2982
G01 X80.7029 Y-59.3044
G01 X80.6851 Y-59.3130
G01 X80.6723 Y-59.3208
G01 X80.6603 Y-59.3296
G01 X80.6455 Y-59.3428
G01 X76.7993 Y-63.1890
G01 X76.7885 Y-63.2010
G01 X76.7781 Y-63.2149
G01 X76.7692 Y-63.2298
G01 X76.7628 Y-63.2433
G01 X76.7553 Y-63.2643
G01 X76.7517 Y-63.2787
G01 X76.7492 Y-63.2959
G01 X76.7483 Y-63.3133
G01 X76.7492 Y-63.3306
G01 X76.7517 Y-63.3478
G01 X76.7553 Y-63.3623
G01 X76.7628 Y-63.3833
G01 X76.7692 Y-63.3968
G01 X76.7788 Y-63.4127
G01 X76.7901 Y-63.4275
G01 X76.8002 Y-63.4385
G01 X76.8112 Y-63.4486
G01 X76.8270 Y-63.4605
G01 X76.8419 Y-63.4694
G01 X76.8599 Y-63.4778
G01 X76.8740 Y-63.4827
G01 X76.8884 Y-63.4864
G01 X76.9080 Y-63.4895
G01 X76.9254 Y-63.4904
G01 X88.2663 Y-63.4904
G01 X88.2861 Y-63.4892
G01 X88.3009 Y-63.4870
G01 X88.3177 Y-63.4827
G01 X88.3341 Y-63.4769
G01 X88.3476 Y-63.4705
G01 X88.3667 Y-63.4591
G01 X88.3787 Y-63.4502
G01 X88.3915 Y-63.4385
G01 X90.3364 Y-61.4937
G01 X90.3480 Y-61.4808
G01 X90.3584 Y-61.4668
G01 X90.3673 Y-61.4519
G01 X90.3756 Y-61.4339
G01 X90.3806 Y-61.4198
G01 X90.3848 Y-61.4030
G01 X90.3874 Y-61.3858
G01 X90.3882 Y-61.3684
G01 X90.3882 Y-46.1940
G01 X90.3874 Y-46.1766
G01 X90.3848 Y-46.1594
G01 X90.3806 Y-46.1426
G01 X90.3748 Y-46.1262
G01 X90.3684 Y-46.1127
G01 X90.3570 Y-46.0936
G01 X90.3480 Y-46.0817
G01 X90.3364 Y-46.0688
G01 X88.7514 Y-44.4838
G01 X88.7385 Y-44.4721
G01 X88.7245 Y-44.4618
G01 X88.7096 Y-44.4528
G01 X88.6928 Y-44.4449
G01 X88.6776 Y-44.4396
G01 X88.6607 Y-44.4353
G01 X88.6435 Y-44.4328
G01 X88.6262 Y-44.4319
G01 X79.9428 Y-44.4319
G01 X79.9255 Y-44.4328
G01 X79.9107 Y-44.4349
G01 X79.8903 Y-44.4399
G01 X79.8728 Y-44.4464
G01 X79.8594 Y-44.4528
G01 X79.8465 Y-44.4605
G01 X79.8305 Y-44.4721
G01 X79.8176 Y-44.4838
G01 X75.9325 Y-48.3689
G01 X74.1189 Y-48.3689
G01 X74.1015 Y-48.3698
G01 X74.0843 Y-48.3723
G01 X74.0675 Y-48.3766
G01 X74.0534 Y-48.3815
G01 X74.0354 Y-48.3898
G01 X74.0205 Y-48.3988
G01 X74.0066 Y-48.4091
G01 X73.9937 Y-48.4208
G01 X73.1047 Y-49.3098
G01 X73.0915 Y-49.3246
G01 X73.0826 Y-49.3366
G01 X73.0737 Y-49.3515
G01 X73.0663 Y-49.3673
G01 X73.0612 Y-49.3813
G01 X73.0560 Y-49.4017
G01 X73.0537 Y-49.4177
G01 X73.0529 Y-49.4375
G01 X73.0540 Y-49.4548
G01 X73.0562 Y-49.4696
G01 X73.0598 Y-49.4840
G01 X73.0663 Y-49.5028
G01 X73.0737 Y-49.5185
G01 X73.0826 Y-49.5334
G01 X73.0930 Y-49.5473
G01 X73.1047 Y-49.5602
G01 X73.1175 Y-49.5719
G01 X73.1315 Y-49.5822
G01 X73.1486 Y-49.5923
G01 X73.1644 Y-49.5995
G01 X73.1785 Y-49.6044
G01 X73.1929 Y-49.6081
G01 X73.2125 Y-49.6112
G01 X73.2286 Y-49.6121
G01 X79.3928 Y-49.6121
G01 X79.4101 Y-49.6112
G01 X79.4285 Y-49.6084
G01 X79.4442 Y-49.6044
G01 X79.4583 Y-49.5995
G01 X79.4763 Y-49.5912
G01 X79.4912 Y-49.5822
G01 X79.5032 Y-49.5734
G01 X79.5180 Y-49.5602
G01 X81.6251 Y-47.4531
G01 X83.7821 Y-47.4531
G01 X83.7995 Y-47.4522
G01 X83.8190 Y-47.4491
G01 X83.8335 Y-47.4454
G01 X83.8476 Y-47.4405
G01 X83.8656 Y-47.4322
G01 X83.8825 Y-47.4218
G01 X83.8944 Y-47.4129
G01 X83.9064 Y-47.4021
G01 X85.1255 Y-46.1831
G01 X86.8725 Y-46.1831
G01 X88.1079 Y-47.4185
G01 X88.1079 Y-49.1655
G01 X86.8725 Y-50.4009
G01 X85.1255 Y-50.4009
G01 X83.9073 Y-49.1828
G01 X83.8944 Y-49.1711
G01 X83.8805 Y-49.1608
G01 X83.8656 Y-49.1518
G01 X83.8521 Y-49.1454
G01 X83.8335 Y-49.1386
G01 X83.8167 Y-49.1343
G01 X83.7995 Y-49.1318
G01 X83.7821 Y-49.1309
G01 X82.3935 Y-49.1309
G01 X82.3761 Y-49.1318
G01 X82.3589 Y-49.1343
G01 X82.3444 Y-49.1379
G01 X82.3234 Y-49.1454
G01 X82.3100 Y-49.1518
G01 X82.2951 Y-49.1608
G01 X82.2811 Y-49.1711
G01 X82.2691 Y-49.1819
G01 X80.1611 Y-51.2899
G01 X75.0706 Y-51.2899
G01 X75.0545 Y-51.2908
G01 X75.0373 Y-51.2933
G01 X75.0205 Y-51.2976
G01 X75.0041 Y-51.3034
G01 X74.9884 Y-51.3108
G01 X74.9735 Y-51.3198
G01 X74.9595 Y-51.3301
G01 X74.9467 Y-51.3418
G01 X74.9350 Y-51.3547
G01 X74.9246 Y-51.3686
G01 X74.9157 Y-51.3835
G01 X74.9083 Y-51.3992
G01 X74.9024 Y-51.4156
G01 X74.8982 Y-51.4324
G01 X74.8957 Y-51.4496
G01 X74.8948 Y-51.4670
G01 X74.8957 Y-51.4843
G01 X74.8982 Y-51.5015
G01 X74.9024 Y-51.5184
G01 X74.9083 Y-51.5347
G01 X74.9157 Y-51.5505
G01 X74.9246 Y-51.5654
G01 X74.9350 Y-51.5793
G01 X74.9467 Y-51.5922
G01 X75.8366 Y-52.4821
G01 X75.8486 Y-52.4929
G01 X75.8605 Y-52.5018
G01 X75.8796 Y-52.5133
G01 X75.8931 Y-52.5196
G01 X75.9095 Y-52.5254
G01 X75.9263 Y-52.5297
G01 X75.9423 Y-52.5321
G01 X75.9609 Y-52.5331
G01 X83.7833 Y-52.5331
G01 X83.7995 Y-52.5322
G01 X83.8167 Y-52.5297
G01 X83.8335 Y-52.5254
G01 X83.8499 Y-52.5196
G01 X83.8656 Y-52.5122
G01 X83.8805 Y-52.5032
G01 X83.8944 Y-52.4929
G01 X83.9064 Y-52.4821
G01 X85.1255 Y-51.2631
G01 X86.8725 Y-51.2631
G01 X88.1079 Y-52.4985
G01 X88.1079 Y-54.2455
G01 X86.8725 Y-55.4809
G01 X85.1255 Y-55.4809
G01 X83.9064 Y-54.2619
G01 X83.8944 Y-54.2511
G01 X83.8825 Y-54.2422
G01 X83.8634 Y-54.2307
G01 X83.8499 Y-54.2244
G01 X83.8335 Y-54.2186
G01 X83.8167 Y-54.2143
G01 X83.8007 Y-54.2119
G01 X83.7821 Y-54.2109
G01 X76.1880 Y-54.2109
G01 X76.1706 Y-54.2118
G01 X76.1534 Y-54.2143
G01 X76.1366 Y-54.2186
G01 X76.1202 Y-54.2244
G01 X76.1045 Y-54.2318
G01 X76.0896 Y-54.2408
G01 X76.0757 Y-54.2511
G01 X76.0628 Y-54.2628
G01 X76.0511 Y-54.2757
G01 X76.0408 Y-54.2896
G01 X76.0318 Y-54.3045
G01 X76.0235 Y-54.3225
G01 X76.0182 Y-54.3378
G01 X76.0139 Y-54.3559
G01 X76.0117 Y-54.3719
G01 X76.0109 Y-54.3868
G01 X76.0109 Y-54.4035
G01 X74.7755 Y-55.6389
G01 X73.0285 Y-55.6389
G01 X71.7931 Y-54.4035
G01 X71.7931 Y-52.6565
G01 X72.8573 Y-51.5922
G01 X72.8705 Y-51.5774
G01 X72.8794 Y-51.5654
G01 X72.8871 Y-51.5526
G01 X72.8947 Y-51.5370
G01 X72.9016 Y-51.5184
G01 X72.9058 Y-51.5015
G01 X72.9083 Y-51.4843
G01 X72.9091 Y-51.4645
G01 X72.9080 Y-51.4472
G01 X72.9058 Y-51.4324
G01 X72.9022 Y-51.4180
G01 X72.8957 Y-51.3992
G01 X72.8883 Y-51.3835
G01 X72.8794 Y-51.3686
G01 X72.8682 Y-51.3537
G01 X72.8573 Y-51.3418
G01 X72.8425 Y-51.3286
G01 X72.8305 Y-51.3198
G01 X72.8177 Y-51.3120
G01 X72.8021 Y-51.3044
G01 X72.7835 Y-51.2976
G01 X72.7667 Y-51.2933
G01 X72.7495 Y-51.2908
G01 X72.7321 Y-51.2899
G01 X62.2755 Y-51.2899
G01 X60.6764 Y-49.6908
G01 X60.6635 Y-49.6791
G01 X60.6485 Y-49.6681
G01 X60.6346 Y-49.6598
G01 X60.6212 Y-49.6534
G01 X60.6026 Y-49.6466
G01 X60.5833 Y-49.6419
G01 X60.5685 Y-49.6398
G01 X60.5524 Y-49.6389
G01 X58.8285 Y-49.6389
G01 X57.5931 Y-48.4035
G01 X57.5931 Y-46.6565
G01 X58.8285 Y-45.4211
G01 X60.5755 Y-45.4211
G01 X61.8109 Y-46.6565
G01 X61.8109 Y-48.3792
G01 X61.8118 Y-48.3965
G01 X61.8143 Y-48.4137
G01 X61.8186 Y-48.4306
G01 X61.8239 Y-48.4458
G01 X61.8318 Y-48.4626
G01 X61.8408 Y-48.4775
G01 X61.8511 Y-48.4915
G01 X61.8628 Y-48.5044
G01 X62.9186 Y-49.5602
G01 X62.9315 Y-49.5719
G01 X62.9455 Y-49.5822
G01 X62.9604 Y-49.5912
G01 X62.9761 Y-49.5986
G01 X62.9924 Y-49.6044
G01 X63.0093 Y-49.6087
G01 X63.0265 Y-49.6112
G01 X63.0438 Y-49.6121
G01 X70.5741 Y-49.6121
G01 X70.5915 Y-49.6112
G01 X70.6099 Y-49.6084
G01 X70.6279 Y-49.6037
G01 X70.6419 Y-49.5986
G01 X70.6554 Y-49.5923
G01 X70.6725 Y-49.5822
G01 X70.6865 Y-49.5719
G01 X70.7010 Y-49.5584
G01 X70.7110 Y-49.5473
G01 X70.7199 Y-49.5354
G01 X70.7303 Y-49.5185
G01 X70.7377 Y-49.5028
G01 X70.7442 Y-49.4840
G01 X70.7478 Y-49.4696
G01 X70.7500 Y-49.4548
G01 X70.7512 Y-49.4350
G01 X70.7503 Y-49.4177
G01 X70.7473 Y-49.3981
G01 X70.7436 Y-49.3836
G01 X70.7386 Y-49.3695
G01 X70.7303 Y-49.3515
G01 X70.7214 Y-49.3366
G01 X70.7110 Y-49.3227
G01 X70.6993 Y-49.3098
G01 X69.7931 Y-48.4035
G01 X69.7931 Y-46.6565
G01 X71.0285 Y-45.4211
G01 X72.7755 Y-45.4211
G01 X73.9937 Y-46.6392
G01 X74.0085 Y-46.6524
G01 X74.0205 Y-46.6612
G01 X74.0354 Y-46.6702
G01 X74.0511 Y-46.6776
G01 X74.0699 Y-46.6841
G01 X74.0843 Y-46.6877
G01 X74.0991 Y-46.6899
G01 X74.1177 Y-46.6911
G01 X75.1642 Y-46.6911
G01 X75.1815 Y-46.6902
G01 X75.1999 Y-46.6874
G01 X75.2156 Y-46.6834
G01 X75.2296 Y-46.6785
G01 X75.2476 Y-46.6702
G01 X75.2625 Y-46.6612
G01 X75.2746 Y-46.6524
G01 X75.2894 Y-46.6392
G01 X79.1745 Y-42.7541
G01 X88.6262 Y-42.7541
G01 X88.6435 Y-42.7532
G01 X88.6583 Y-42.7511
G01 X88.6799 Y-42.7457
G01 X88.6939 Y-42.7406
G01 X88.7096 Y-42.7332
G01 X88.7245 Y-42.7242
G01 X88.7366 Y-42.7154
G01 X88.7514 Y-42.7022
G01 X90.4634 Y-40.9902
G01 X90.4750 Y-40.9773
G01 X90.4847 Y-40.9644
G01 X90.4954 Y-40.9463
G01 X90.5018 Y-40.9328
G01 X90.5076 Y-40.9164
G01 X90.5118 Y-40.8996
G01 X90.5141 Y-40.8848
G01 X90.5152 Y-40.8650
G01 X90.5152 Y-25.1120
G01 X90.5144 Y-25.0946
G01 X90.5118 Y-25.0774
G01 X90.5076 Y-25.0606
G01 X90.5018 Y-25.0442
G01 X90.4954 Y-25.0307
G01 X90.4840 Y-25.0116
G01 X90.4750 Y-24.9997
G01 X90.4634 Y-24.9868
G01 X88.6244 Y-23.1478
G01 X88.6115 Y-23.1361
G01 X88.5975 Y-23.1258
G01 X88.5826 Y-23.1168
G01 X88.5669 Y-23.1094
G01 X88.5506 Y-23.1036
G01 X88.5337 Y-23.0993
G01 X88.5165 Y-23.0968
G01 X88.4992 Y-23.0959
G01 X81.2128 Y-23.0959
G01 X81.1955 Y-23.0968
G01 X81.1783 Y-23.0993
G01 X81.1614 Y-23.1036
G01 X81.1474 Y-23.1085
G01 X81.1294 Y-23.1168
G01 X81.1145 Y-23.1258
G01 X81.1005 Y-23.1361
G01 X81.0876 Y-23.1478
G01 X76.6945 Y-27.5409
G01 X74.2459 Y-27.5409
G01 X74.2285 Y-27.5418
G01 X74.2138 Y-27.5439
G01 X74.1933 Y-27.5489
G01 X74.1759 Y-27.5554
G01 X74.1624 Y-27.5618
G01 X74.1496 Y-27.5694
G01 X74.1336 Y-27.5811
G01 X74.1216 Y-27.5919
G01 X73.1047 Y-28.6088
G01 X73.0930 Y-28.6217
G01 X73.0841 Y-28.6336
G01 X73.0726 Y-28.6527
G01 X73.0663 Y-28.6663
G01 X73.0604 Y-28.6826
G01 X73.0562 Y-28.6995
G01 X73.0540 Y-28.7142
G01 X73.0528 Y-28.7340
G01 X73.0537 Y-28.7514
G01 X73.0562 Y-28.7686
G01 X73.0604 Y-28.7854
G01 X73.0663 Y-28.8018
G01 X73.0737 Y-28.8175
G01 X73.0826 Y-28.8324
G01 X73.0946 Y-28.8482
G01 X73.1055 Y-28.8601
G01 X73.1195 Y-28.8724
G01 X73.1315 Y-28.8812
G01 X73.1443 Y-28.8890
G01 X73.1599 Y-28.8966
G01 X73.1785 Y-28.9034
G01 X73.1953 Y-28.9077
G01 X73.2125 Y-28.9102
G01 X73.2286 Y-28.9111
G01 X78.3674 Y-28.9111
G01 X78.3847 Y-28.9102
G01 X78.4031 Y-28.9074
G01 X78.4188 Y-28.9034
G01 X78.4328 Y-28.8985
G01 X78.4508 Y-28.8902
G01 X78.4658 Y-28.8812
G01 X78.4778 Y-28.8724
G01 X78.4926 Y-28.8592
G01 X80.4727 Y-26.8791
G01 X83.7821 Y-26.8791
G01 X83.7995 Y-26.8782
G01 X83.8167 Y-26.8757
G01 X83.8358 Y-26.8707
G01 X83.8499 Y-26.8656
G01 X83.8656 Y-26.8582
G01 X83.8825 Y-26.8478
G01 X83.8944 Y-26.8389
G01 X83.9064 Y-26.8281
G01 X85.1255 Y-25.6091
G01 X86.8725 Y-25.6091
G01 X88.1079 Y-26.8445
G01 X88.1079 Y-28.5915
G01 X86.8725 Y-29.8269
G01 X85.1255 Y-29.8269
G01 X83.9064 Y-28.6079
G01 X83.8944 Y-28.5971
G01 X83.8825 Y-28.5882
G01 X83.8656 Y-28.5778
G01 X83.8476 Y-28.5695
G01 X83.8335 Y-28.5646
G01 X83.8179 Y-28.5606
G01 X83.7995 Y-28.5578
G01 X83.7821 Y-28.5569
G01 X81.2410 Y-28.5569
G01 X81.2249 Y-28.5577
G01 X81.2065 Y-28.5603
G01 X81.1920 Y-28.5639
G01 X81.1710 Y-28.5714
G01 X81.1576 Y-28.5778
G01 X81.1427 Y-28.5868
G01 X81.1287 Y-28.5971
G01 X81.1167 Y-28.6079
G01 X79.1357 Y-30.5889
G01 X75.3234 Y-30.5890
G01 X75.3085 Y-30.5898
G01 X75.2913 Y-30.5923
G01 X75.2745 Y-30.5966
G01 X75.2581 Y-30.6024
G01 X75.2424 Y-30.6098
G01 X75.2275 Y-30.6188
G01 X75.2135 Y-30.6291
G01 X75.2007 Y-30.6408
G01 X75.1890 Y-30.6537
G01 X75.1786 Y-30.6676
G01 X75.1697 Y-30.6825
G01 X75.1623 Y-30.6982
G01 X75.1564 Y-30.7146
G01 X75.1522 Y-30.7314
G01 X75.1497 Y-30.7486
G01 X75.1488 Y-30.7660
G01 X75.1497 Y-30.7833
G01 X75.1522 Y-30.8005
G01 X75.1564 Y-30.8174
G01 X75.1623 Y-30.8337
G01 X75.1697 Y-30.8495
G01 X75.1786 Y-30.8644
G01 X75.1890 Y-30.8783
G01 X75.1998 Y-30.8903
G01 X76.1469 Y-31.8375
G01 X76.1514 Y-31.8498
G01 X76.1577 Y-31.8633
G01 X76.1671 Y-31.8794
G01 X76.1781 Y-31.8943
G01 X76.1907 Y-31.9081
G01 X76.2027 Y-31.9189
G01 X76.2146 Y-31.9278
G01 X76.2337 Y-31.9393
G01 X76.2472 Y-31.9456
G01 X76.2636 Y-31.9514
G01 X76.2804 Y-31.9557
G01 X76.2952 Y-31.9579
G01 X76.3150 Y-31.9591
G01 X83.7821 Y-31.9591
G01 X83.7995 Y-31.9582
G01 X83.8167 Y-31.9557
G01 X83.8335 Y-31.9514
G01 X83.8499 Y-31.9456
G01 X83.8656 Y-31.9382
G01 X83.8805 Y-31.9292
G01 X83.8944 Y-31.9189
G01 X83.9064 Y-31.9081
G01 X85.1255 Y-30.6891
G01 X86.8725 Y-30.6891
G01 X88.1079 Y-31.9245
G01 X88.1079 Y-33.6715
G01 X86.8725 Y-34.9069
G01 X85.1255 Y-34.9069
G01 X83.9064 Y-33.6879
G01 X83.8944 Y-33.6771
G01 X83.8805 Y-33.6668
G01 X83.8656 Y-33.6578
G01 X83.8499 Y-33.6504
G01 X83.8335 Y-33.6446
G01 X83.8167 Y-33.6403
G01 X83.7995 Y-33.6378
G01 X83.7821 Y-33.6369
G01 X76.1499 Y-33.6369
G01 X76.1325 Y-33.6378
G01 X76.1153 Y-33.6403
G01 X76.1009 Y-33.6439
G01 X76.0799 Y-33.6514
G01 X76.0664 Y-33.6578
G01 X76.0515 Y-33.6668
G01 X76.0376 Y-33.6771
G01 X76.0256 Y-33.6879
G01 X74.9025 Y-34.8109
G01 X73.1555 Y-34.8109
G01 X71.9201 Y-33.5755
G01 X71.9201 Y-31.8285
G01 X72.8573 Y-30.8912
G01 X72.8690 Y-30.8783
G01 X72.8787 Y-30.8654
G01 X72.8883 Y-30.8495
G01 X72.8957 Y-30.8337
G01 X72.9016 Y-30.8174
G01 X72.9062 Y-30.7981
G01 X72.9085 Y-30.7809
G01 X72.9092 Y-30.7660
G01 X72.9085 Y-30.7511
G01 X72.9058 Y-30.7314
G01 X72.9016 Y-30.7146
G01 X72.8957 Y-30.6982
G01 X72.8883 Y-30.6825
G01 X72.8794 Y-30.6676
G01 X72.8674 Y-30.6518
G01 X72.8573 Y-30.6408
G01 X72.8463 Y-30.6307
G01 X72.8325 Y-30.6202
G01 X72.8167 Y-30.6104
G01 X72.8021 Y-30.6034
G01 X72.7835 Y-30.5966
G01 X72.7667 Y-30.5923
G01 X72.7495 Y-30.5898
G01 X72.7321 Y-30.5889
G01 X62.5295 Y-30.5889
G01 X60.8034 Y-28.8628
G01 X60.7905 Y-28.8511
G01 X60.7755 Y-28.8401
G01 X60.7616 Y-28.8318
G01 X60.7482 Y-28.8254
G01 X60.7296 Y-28.8186
G01 X60.7103 Y-28.8139
G01 X60.6955 Y-28.8118
G01 X60.6794 Y-28.8109
G01 X58.9555 Y-28.8109
G01 X57.7201 Y-27.5755
G01 X57.7201 Y-25.8285
G01 X58.9555 Y-24.5931
G01 X60.7025 Y-24.5931
G01 X61.9379 Y-25.8285
G01 X61.9379 Y-27.5512
G01 X61.9391 Y-27.5710
G01 X61.9413 Y-27.5857
G01 X61.9449 Y-27.6002
G01 X61.9514 Y-27.6189
G01 X61.9600 Y-27.6368
G01 X61.9678 Y-27.6495
G01 X61.9766 Y-27.6616
G01 X61.9898 Y-27.6764
G01 X63.1726 Y-28.8592
G01 X63.1855 Y-28.8709
G01 X63.1995 Y-28.8812
G01 X63.2144 Y-28.8902
G01 X63.2301 Y-28.8976
G01 X63.2464 Y-28.9034
G01 X63.2633 Y-28.9077
G01 X63.2805 Y-28.9102
G01 X63.2978 Y-28.9111
G01 X70.8281 Y-28.9111
G01 X70.8455 Y-28.9102
G01 X70.8627 Y-28.9077
G01 X70.8819 Y-28.9027
G01 X70.8959 Y-28.8976
G01 X70.9094 Y-28.8913
G01 X70.9265 Y-28.8812
G01 X70.9405 Y-28.8709
G01 X70.9533 Y-28.8592
G01 X70.9665 Y-28.8444
G01 X70.9754 Y-28.8324
G01 X70.9831 Y-28.8196
G01 X70.9917 Y-28.8018
G01 X70.9982 Y-28.7830
G01 X71.0018 Y-28.7686
G01 X71.0040 Y-28.7538
G01 X71.0052 Y-28.7340
G01 X71.0043 Y-28.7167
G01 X71.0013 Y-28.6971
G01 X70.9976 Y-28.6826
G01 X70.9926 Y-28.6685
G01 X70.9843 Y-28.6505
G01 X70.9747 Y-28.6346
G01 X70.9650 Y-28.6217
G01 X70.9533 Y-28.6088
G01 X69.9201 Y-27.5755
G01 X69.9201 Y-25.8285
G01 X71.1555 Y-24.5931
G01 X72.9025 Y-24.5931
G01 X74.1207 Y-25.8112
G01 X74.1355 Y-25.8244
G01 X74.1475 Y-25.8332
G01 X74.1603 Y-25.8410
G01 X74.1781 Y-25.8496
G01 X74.1957 Y-25.8558
G01 X74.2114 Y-25.8597
G01 X74.2261 Y-25.8619
G01 X74.2459 Y-25.8631
G01 X75.9262 Y-25.8631
G01 X75.9435 Y-25.8622
G01 X75.9595 Y-25.8599
G01 X75.9799 Y-25.8547
G01 X75.9939 Y-25.8496
G01 X76.0096 Y-25.8422
G01 X76.0245 Y-25.8332
G01 X76.0366 Y-25.8244
G01 X76.0514 Y-25.8112
G01 X80.4445 Y-21.4181
G01 X88.4992 Y-21.4181
G01 X88.5165 Y-21.4172
G01 X88.5313 Y-21.4151
G01 X88.5529 Y-21.4097
G01 X88.5669 Y-21.4046
G01 X88.5826 Y-21.3972
G01 X88.5975 Y-21.3882
G01 X88.6105 Y-21.3786
G01 X88.6244 Y-21.3662
G01 X90.3161 Y-19.6745
G01 X90.3269 Y-19.6625
G01 X90.3372 Y-19.6485
G01 X90.3462 Y-19.6336
G01 X90.3536 Y-19.6179
G01 X90.3594 Y-19.6016
G01 X90.3637 Y-19.5847
G01 X90.3662 Y-19.5675
G01 X90.3671 Y-19.5514
G01 X90.3671 Y-4.6438
G01 X90.3662 Y-4.6265
G01 X90.3637 Y-4.6093
G01 X90.3601 Y-4.5948
G01 X90.3526 Y-4.5738
G01 X90.3462 Y-4.5604
G01 X90.3372 Y-4.5455
G01 X90.3269 Y-4.5315
G01 X90.3161 Y-4.5195
G01 X89.0054 Y-3.2088
G01 X88.9925 Y-3.1971
G01 X88.9785 Y-3.1868
G01 X88.9636 Y-3.1778
G01 X88.9456 Y-3.1695
G01 X88.9316 Y-3.1646
G01 X88.9147 Y-3.1603
G01 X88.8975 Y-3.1578
G01 X88.8802 Y-3.1569
G01 X73.8468 Y-3.1569
G01 X73.8270 Y-3.1581
G01 X73.8123 Y-3.1603
G01 X73.7954 Y-3.1646
G01 X73.7791 Y-3.1704
G01 X73.7656 Y-3.1767
G01 X73.7474 Y-3.1875
G01 X73.7345 Y-3.1971
G01 X73.7216 Y-3.2088
G01 X73.2576 Y-3.6728
G01 X73.2460 Y-3.6856
G01 X73.2356 Y-3.6996
G01 X73.2267 Y-3.7145
G01 X73.2193 Y-3.7302
G01 X73.2128 Y-3.7489
G01 X73.2088 Y-3.7658
G01 X73.2066 Y-3.7806
G01 X73.2058 Y-3.7955
G01 X73.2065 Y-3.8141
G01 X73.2088 Y-3.8301
G01 X73.2142 Y-3.8517
G01 X73.2193 Y-3.8657
G01 X73.2267 Y-3.8814
G01 X73.2370 Y-3.8983
G01 X73.2460 Y-3.9103
G01 X73.2568 Y-3.9223
G01 X74.2729 Y-4.9385
G01 X74.2729 Y-6.6855
G01 X73.1110 Y-7.8475
G01 X73.0993 Y-7.8604
G01 X73.0897 Y-7.8733
G01 X73.0800 Y-7.8892
G01 X73.0717 Y-7.9072
G01 X73.0668 Y-7.9213
G01 X73.0631 Y-7.9357
G01 X73.0600 Y-7.9553
G01 X73.0592 Y-7.9751
G01 X73.0600 Y-7.9900
G01 X73.0621 Y-8.0048
G01 X73.0668 Y-8.0241
G01 X73.0736 Y-8.0427
G01 X73.0800 Y-8.0561
G01 X73.0877 Y-8.0690
G01 X73.0993 Y-8.0850
G01 X73.1128 Y-8.0996
G01 X73.1239 Y-8.1096
G01 X73.1358 Y-8.1185
G01 X73.1527 Y-8.1288
G01 X73.1707 Y-8.1371
G01 X73.1848 Y-8.1421
G01 X73.1993 Y-8.1458
G01 X73.2188 Y-8.1489
G01 X73.2362 Y-8.1497
G01 X73.6415 Y-8.1497
G01 X73.6576 Y-8.1490
G01 X73.6784 Y-8.1458
G01 X73.6929 Y-8.1421
G01 X73.7093 Y-8.1363
G01 X73.7271 Y-8.1276
G01 X73.7399 Y-8.1199
G01 X73.7538 Y-8.1096
G01 X73.7667 Y-8.0979
G01 X75.8315 Y-6.0331
G01 X83.7130 Y-6.0331
G01 X83.7328 Y-6.0319
G01 X83.7499 Y-6.0291
G01 X83.7644 Y-6.0254
G01 X83.7785 Y-6.0205
G01 X83.7965 Y-6.0122
G01 X83.8114 Y-6.0032
G01 X83.8253 Y-5.9929
G01 X83.8399 Y-5.9794
G01 X83.8499 Y-5.9683
G01 X83.8588 Y-5.9564
G01 X83.8686 Y-5.9406
G01 X83.8766 Y-5.9238
G01 X83.8824 Y-5.9074
G01 X83.8867 Y-5.8906
G01 X83.8891 Y-5.8746
G01 X83.8901 Y-5.8560
G01 X83.8901 Y-5.7535
G01 X85.1255 Y-4.5181
G01 X86.8725 Y-4.5181
G01 X88.1079 Y-5.7535
G01 X88.1079 Y-7.5005
G01 X86.8725 Y-8.7359
G01 X85.1255 Y-8.7359
G01 X84.1514 Y-7.7619
G01 X84.1394 Y-7.7511
G01 X84.1255 Y-7.7408
G01 X84.1106 Y-7.7318
G01 X84.0971 Y-7.7254
G01 X84.0761 Y-7.7179
G01 X84.0617 Y-7.7143
G01 X84.0445 Y-7.7118
G01 X84.0271 Y-7.7109
G01 X76.5998 Y-7.7109
G01 X76.5837 Y-7.7117
G01 X76.5653 Y-7.7143
G01 X76.5508 Y-7.7179
G01 X76.5298 Y-7.7254
G01 X76.5164 Y-7.7318
G01 X76.5015 Y-7.7408
G01 X76.4875 Y-7.7511
G01 X76.4755 Y-7.7619
G01 X74.8358 Y-9.4017
G01 X74.8234 Y-9.4156
G01 X74.8146 Y-9.4276
G01 X74.8069 Y-9.4404
G01 X74.7982 Y-9.4583
G01 X74.7924 Y-9.4746
G01 X74.7881 Y-9.4915
G01 X74.7854 Y-9.5111
G01 X74.7847 Y-9.5260
G01 X74.7854 Y-9.5409
G01 X74.7877 Y-9.5581
G01 X74.7924 Y-9.5774
G01 X74.7982 Y-9.5938
G01 X74.8057 Y-9.6095
G01 X74.8160 Y-9.6264
G01 X74.8265 Y-9.6402
G01 X74.8366 Y-9.6512
G01 X74.8476 Y-9.6613
G01 X74.8634 Y-9.6732
G01 X74.8773 Y-9.6816
G01 X74.8941 Y-9.6896
G01 X74.9104 Y-9.6954
G01 X74.9273 Y-9.6997
G01 X74.9432 Y-9.7021
G01 X74.9618 Y-9.7031
G01 X75.0375 Y-9.7031
G01 X76.2876 Y-10.9531
G01 X76.2996 Y-10.9639
G01 X76.3135 Y-10.9742
G01 X76.3284 Y-10.9832
G01 X76.3441 Y-10.9906
G01 X76.3605 Y-10.9964
G01 X76.3773 Y-11.0007
G01 X76.3945 Y-11.0032
G01 X76.4119 Y-11.0041
G01 X83.7130 Y-11.0041
G01 X83.7316 Y-11.0031
G01 X83.7476 Y-11.0007
G01 X83.7644 Y-10.9964
G01 X83.7808 Y-10.9906
G01 X83.7943 Y-10.9843
G01 X83.8134 Y-10.9728
G01 X83.8253 Y-10.9639
G01 X83.8382 Y-10.9522
G01 X83.8499 Y-10.9393
G01 X83.8602 Y-10.9254
G01 X83.8692 Y-10.9105
G01 X83.8761 Y-10.8959
G01 X83.8824 Y-10.8784
G01 X83.8864 Y-10.8628
G01 X83.8891 Y-10.8456
G01 X83.8898 Y-10.8337
G01 X85.1255 Y-9.5981
G01 X86.8725 Y-9.5981
G01 X88.1079 Y-10.8335
G01 X88.1079 Y-12.5805
G01 X86.8725 Y-13.8159
G01 X85.1255 Y-13.8159
G01 X84.0424 Y-12.7329
G01 X84.0304 Y-12.7221
G01 X84.0165 Y-12.7118
G01 X84.0016 Y-12.7028
G01 X83.9881 Y-12.6964
G01 X83.9671 Y-12.6889
G01 X83.9527 Y-12.6853
G01 X83.9355 Y-12.6828
G01 X83.9181 Y-12.6819
G01 X76.3499 Y-12.6819
G01 X76.3325 Y-12.6828
G01 X76.3153 Y-12.6853
G01 X76.2985 Y-12.6896
G01 X76.2821 Y-12.6954
G01 X76.2664 Y-12.7028
G01 X76.2515 Y-12.7118
G01 X76.2376 Y-12.7221
G01 X76.2256 Y-12.7329
G01 X75.0375 Y-13.9209
G01 X73.2905 Y-13.9209
G01 X72.0551 Y-12.6855
G01 X72.0551 Y-10.9385
G01 X72.8637 Y-10.1299
G01 X72.8753 Y-10.1170
G01 X72.8850 Y-10.1040
G01 X72.8946 Y-10.0881
G01 X72.9020 Y-10.0724
G01 X72.9079 Y-10.0561
G01 X72.9125 Y-10.0368
G01 X72.9149 Y-10.0196
G01 X72.9155 Y-10.0047
G01 X72.9149 Y-9.9898
G01 X72.9121 Y-9.9701
G01 X72.9079 Y-9.9533
G01 X72.9020 Y-9.9369
G01 X72.8946 Y-9.9212
G01 X72.8857 Y-9.9063
G01 X72.8737 Y-9.8905
G01 X72.8628 Y-9.8786
G01 X72.8489 Y-9.8663
G01 X72.8348 Y-9.8561
G01 X72.8219 Y-9.8485
G01 X72.8085 Y-9.8421
G01 X72.7899 Y-9.8352
G01 X72.7730 Y-9.8310
G01 X72.7558 Y-9.8284
G01 X72.7385 Y-9.8276
G01 X62.5482 Y-9.8276
G01 X60.6934 Y-7.9728
G01 X60.6805 Y-7.9611
G01 X60.6665 Y-7.9508
G01 X60.6494 Y-7.9407
G01 X60.6359 Y-7.9344
G01 X60.6196 Y-7.9286
G01 X60.6003 Y-7.9239
G01 X60.5855 Y-7.9218
G01 X60.5694 Y-7.9209
G01 X59.0905 Y-7.9209
G01 X57.8551 Y-6.6855
G01 X57.8551 Y-4.9385
G01 X59.0905 Y-3.7031
G01 X60.8375 Y-3.7031
G01 X62.0729 Y-4.9385
G01 X62.0729 Y-6.6855
G01 X62.0503 Y-6.7082
G01 X62.0411 Y-6.7183
G01 X62.0285 Y-6.7352
G01 X62.0202 Y-6.7491
G01 X62.0128 Y-6.7648
G01 X62.0069 Y-6.7811
G01 X62.0029 Y-6.7968
G01 X62.0001 Y-6.8152
G01 X61.9993 Y-6.8301
G01 X62.0004 Y-6.8523
G01 X62.0027 Y-6.8671
G01 X62.0069 Y-6.8839
G01 X62.0128 Y-6.9003
G01 X62.0202 Y-6.9160
G01 X62.0291 Y-6.9309
G01 X62.0380 Y-6.9429
G01 X62.0511 Y-6.9577
G01 X63.1913 Y-8.0979
G01 X63.2042 Y-8.1096
G01 X63.2181 Y-8.1199
G01 X63.2330 Y-8.1288
G01 X63.2476 Y-8.1358
G01 X63.2651 Y-8.1421
G01 X63.2820 Y-8.1463
G01 X63.2991 Y-8.1489
G01 X63.3165 Y-8.1497
G01 X71.0918 Y-8.1497
G01 X71.1092 Y-8.1489
G01 X71.1263 Y-8.1463
G01 X71.1432 Y-8.1421
G01 X71.1596 Y-8.1363
G01 X71.1753 Y-8.1288
G01 X71.1922 Y-8.1185
G01 X71.2041 Y-8.1096
G01 X71.2152 Y-8.0996
G01 X71.2271 Y-8.0869
G01 X71.2390 Y-8.0711
G01 X71.2480 Y-8.0561
G01 X71.2554 Y-8.0404
G01 X71.2619 Y-8.0217
G01 X71.2659 Y-8.0048
G01 X71.2680 Y-7.9900
G01 X71.2688 Y-7.9751
G01 X71.2680 Y-7.9553
G01 X71.2655 Y-7.9381
G01 X71.2612 Y-7.9213
G01 X71.2544 Y-7.9027
G01 X71.2480 Y-7.8892
G01 X71.2403 Y-7.8764
G01 X71.2294 Y-7.8613
G01 X71.2170 Y-7.8475
G01 X70.0551 Y-6.6855
G01 X70.0551 Y-4.9385
G01 X71.2529 Y-3.7407
G01 X71.2629 Y-3.7297
G01 X71.2749 Y-3.7138
G01 X71.2849 Y-3.6967
G01 X71.2912 Y-3.6832
G01 X71.2963 Y-3.6692
G01 X71.3011 Y-3.6512
G01 X71.3039 Y-3.6328
G01 X71.3047 Y-3.6130
G01 X71.3036 Y-3.5957
G01 X71.3013 Y-3.5809
G01 X71.2977 Y-3.5664
G01 X71.2912 Y-3.5477
G01 X71.2826 Y-3.5299
G01 X71.2749 Y-3.5171
G01 X71.2660 Y-3.5051
G01 X71.2529 Y-3.4903
G01 X69.5744 Y-1.8118
G01 X69.5615 Y-1.8001
G01 X69.5475 Y-1.7898
G01 X69.5326 Y-1.7808
G01 X69.5146 Y-1.7725
G01 X69.5006 Y-1.7676
G01 X69.4837 Y-1.7633
G01 X69.4665 Y-1.7608
G01 X69.4492 Y-1.7599
G01 X40.4458 Y-1.7599
G01 X40.4285 Y-1.7608
G01 X40.4113 Y-1.7633
G01 X40.3944 Y-1.7676
G01 X40.3769 Y-1.7739
G01 X40.3624 Y-1.7808
G01 X40.3474 Y-1.7898
G01 X40.3335 Y-1.8001
G01 X40.3206 Y-1.8118
G01 X38.7991 Y-3.3333
G01 X38.7875 Y-3.3462
G01 X38.7785 Y-3.3581
G01 X38.7671 Y-3.3772
G01 X38.7607 Y-3.3907
G01 X38.7549 Y-3.4071
G01 X38.7507 Y-3.4239
G01 X38.7483 Y-3.4399
G01 X38.7473 Y-3.4585
G01 X38.7473 Y-14.3495
G01 X38.6713 Y-14.4255
G01 X38.6605 Y-14.4375
G01 X38.6501 Y-14.4515
G01 X38.6401 Y-14.4686
G01 X38.6337 Y-14.4821
G01 X38.6287 Y-14.4961
G01 X38.6237 Y-14.5153
G01 X38.6209 Y-14.5349
G01 X38.6203 Y-14.5498
G01 X38.6203 Y-16.7241
G01 X38.6211 Y-16.7415
G01 X38.6234 Y-16.7574
G01 X38.6287 Y-16.7778
G01 X38.6337 Y-16.7919
G01 X38.6412 Y-16.8076
G01 X38.6501 Y-16.8225
G01 X38.6589 Y-16.8345
G01 X38.6721 Y-16.8493
G01 X40.3950 Y-18.5722
G01 X40.4079 Y-18.5839
G01 X40.4239 Y-18.5955
G01 X40.4368 Y-18.6032
G01 X40.4502 Y-18.6096
G01 X40.4677 Y-18.6161
G01 X40.4881 Y-18.6211
G01 X40.5029 Y-18.6232
G01 X40.5190 Y-18.6241
G01 X41.0973 Y-18.6241
G01 X41.1147 Y-18.6232
G01 X41.1319 Y-18.6207
G01 X41.1487 Y-18.6164
G01 X41.1651 Y-18.6106
G01 X41.1808 Y-18.6032
G01 X41.1957 Y-18.5942
G01 X41.2097 Y-18.5839
G01 X41.2217 Y-18.5731
G01 X41.6787 Y-18.1161
G01 X42.6893 Y-18.1161
G01 X43.4039 Y-18.8307
G01 X43.4039 Y-19.8413
G01 X42.6893 Y-20.5559
G01 X41.6787 Y-20.5559
G01 X41.2217 Y-20.0989
G01 X41.2097 Y-20.0881
G01 X41.1936 Y-20.0765
G01 X41.1808 Y-20.0688
G01 X41.1674 Y-20.0624
G01 X41.1499 Y-20.0559
G01 X41.1295 Y-20.0509
G01 X41.1147 Y-20.0488
G01 X41.0973 Y-20.0479
G01 X40.3297 Y-20.0479
G01 X40.3111 Y-20.0491
G01 X40.2964 Y-20.0513
G01 X40.2819 Y-20.0549
G01 X40.2631 Y-20.0614
G01 X40.2474 Y-20.0688
G01 X40.2325 Y-20.0778
G01 X40.2205 Y-20.0866
G01 X40.2057 Y-20.0998
G01 X37.2328 Y-23.0727
G01 X37.2219 Y-23.0846
G01 X37.2108 Y-23.0995
G01 X37.2030 Y-23.1123
G01 X37.1935 Y-23.1324
G01 X37.1886 Y-23.1465
G01 X37.1843 Y-23.1634
G01 X37.1818 Y-23.1805
G01 X37.1809 Y-23.1979
G01 X37.1809 Y-27.2509
G01 X35.1129 Y-29.3189
G01 X31.3871 Y-29.3189
G01 X31.3697 Y-29.3198
G01 X31.3525 Y-29.3223
G01 X31.3380 Y-29.3259
G01 X31.3193 Y-29.3324
G01 X31.3036 Y-29.3398
G01 X31.2908 Y-29.3475
G01 X31.2738 Y-29.3599
G01 X31.2618 Y-29.3708
G01 X30.9527 Y-29.6799
G01 X30.0473 Y-29.6799
G01 X29.4071 Y-29.0397
G01 X29.4071 Y-28.1343
G01 X30.0473 Y-27.4941
G01 X30.9527 Y-27.4941
G01 X31.3018 Y-27.8432
G01 X31.3138 Y-27.8541
G01 X31.3308 Y-27.8665
G01 X31.3436 Y-27.8742
G01 X31.3593 Y-27.8816
G01 X31.3757 Y-27.8874
G01 X31.3901 Y-27.8911
G01 X31.4109 Y-27.8943
G01 X31.4271 Y-27.8951
G01 X34.4510 Y-27.8951
G01 X34.4671 Y-27.8942
G01 X34.4843 Y-27.8917
G01 X34.5012 Y-27.8874
G01 X34.5175 Y-27.8816
G01 X34.5332 Y-27.8742
G01 X34.5481 Y-27.8652
G01 X34.5621 Y-27.8549
G01 X34.5732 Y-27.8449
G01 X35.7061 Y-26.7121
G01 X35.7169 Y-26.7001
G01 X35.7258 Y-26.6881
G01 X35.7362 Y-26.6712
G01 X35.7445 Y-26.6532
G01 X35.7494 Y-26.6392
G01 X35.7534 Y-26.6235
G01 X35.7562 Y-26.6051
G01 X35.7571 Y-26.5878
G01 X35.7571 Y-22.5348
G01 X38.9253 Y-19.3665
G01 X38.9370 Y-19.3537
G01 X38.9473 Y-19.3397
G01 X38.9563 Y-19.3248
G01 X38.9637 Y-19.3091
G01 X38.9702 Y-19.2904
G01 X38.9738 Y-19.2759
G01 X38.9763 Y-19.2587
G01 X38.9772 Y-19.2413
G01 X38.9765 Y-19.2264
G01 X38.9738 Y-19.2068
G01 X38.9688 Y-19.1876
G01 X38.9637 Y-19.1736
G01 X38.9563 Y-19.1579
G01 X38.9459 Y-19.1410
G01 X38.9370 Y-19.1290
G01 X38.9270 Y-19.1179
G01 X37.1964 Y-17.3872
G01 X37.1964 Y-14.8898
G01 X37.1956 Y-14.8736
G01 X37.1930 Y-14.8564
G01 X37.1888 Y-14.8396
G01 X37.1838 Y-14.8255
G01 X37.1743 Y-14.8054
G01 X37.1666 Y-14.7926
G01 X37.1562 Y-14.7787
G01 X37.1446 Y-14.7658
G01 X37.1317 Y-14.7541
G01 X37.1177 Y-14.7438
G01 X37.1006 Y-14.7337
G01 X37.0848 Y-14.7265
G01 X37.0707 Y-14.7216
G01 X37.0563 Y-14.7179
G01 X37.0367 Y-14.7148
G01 X37.0206 Y-14.7139
G01 X35.0311 Y-14.7139
G01 X29.9151 Y-9.5979
G01 X29.9151 Y-7.2710
G01 X29.9144 Y-7.2561
G01 X29.9111 Y-7.2341
G01 X29.9074 Y-7.2196
G01 X29.9016 Y-7.2032
G01 X29.8942 Y-7.1875
G01 X29.8865 Y-7.1747
G01 X29.8749 Y-7.1587
G01 X29.8614 Y-7.1441
G01 X29.8503 Y-7.1341
G01 X29.8364 Y-7.1238
G01 X29.8215 Y-7.1148
G01 X29.8080 Y-7.1084
G01 X29.7882 Y-7.1012
G01 X29.7726 Y-7.0973
G01 X29.7578 Y-7.0951
G01 X29.7380 Y-7.0939
G01 X27.9923 Y-7.0939
G01 X27.9774 Y-7.0946
G01 X27.9566 Y-7.0976
G01 X27.9409 Y-7.1016
G01 X27.9269 Y-7.1065
G01 X27.9089 Y-7.1148
G01 X27.8920 Y-7.1252
G01 X27.8800 Y-7.1341
G01 X27.8689 Y-7.1441
G01 X27.8555 Y-7.1587
G01 X27.8438 Y-7.1747
G01 X27.8362 Y-7.1875
G01 X27.8292 Y-7.2021
G01 X27.8229 Y-7.2196
G01 X27.8187 Y-7.2364
G01 X27.8161 Y-7.2536
G01 X27.8153 Y-7.2710
G01 X27.8153 Y-11.5738
G01 X27.8161 Y-11.5912
G01 X27.8192 Y-11.6108
G01 X27.8229 Y-11.6252
G01 X27.8279 Y-11.6393
G01 X27.8362 Y-11.6573
G01 X27.8465 Y-11.6742
G01 X27.8555 Y-11.6862
G01 X27.8663 Y-11.6982
G01 X28.8783 Y-12.7102
G01 X28.8931 Y-12.7234
G01 X28.9051 Y-12.7322
G01 X28.9200 Y-12.7412
G01 X28.9357 Y-12.7486
G01 X28.9498 Y-12.7537
G01 X28.9702 Y-12.7589
G01 X28.9861 Y-12.7612
G01 X29.0035 Y-12.7621
G01 X29.2300 Y-12.7621
G01 X29.2474 Y-12.7612
G01 X29.2621 Y-12.7591
G01 X29.2802 Y-12.7548
G01 X29.2955 Y-12.7495
G01 X29.3156 Y-12.7400
G01 X29.3284 Y-12.7322
G01 X29.3423 Y-12.7219
G01 X29.3552 Y-12.7102
G01 X29.3661 Y-12.6983
G01 X29.3785 Y-12.6813
G01 X29.3862 Y-12.6685
G01 X29.3936 Y-12.6528
G01 X29.4001 Y-12.6340
G01 X29.4037 Y-12.6196
G01 X29.4062 Y-12.6024
G01 X29.4071 Y-12.5850
G01 X29.4071 Y-12.2541
G01 X31.5929 Y-12.2541
G01 X31.5929 Y-14.4399
G01 X29.4071 Y-14.4399
G01 X29.4071 Y-14.1090
G01 X29.4059 Y-14.0892
G01 X29.4037 Y-14.0744
G01 X29.3994 Y-14.0576
G01 X29.3936 Y-14.0412
G01 X29.3862 Y-14.0255
G01 X29.3772 Y-14.0106
G01 X29.3669 Y-13.9967
G01 X29.3552 Y-13.9838
G01 X29.3433 Y-13.9729
G01 X29.3284 Y-13.9618
G01 X29.3156 Y-13.9540
G01 X29.2955 Y-13.9445
G01 X29.2814 Y-13.9396
G01 X29.2646 Y-13.9353
G01 X29.2474 Y-13.9328
G01 X29.2325 Y-13.9320
G01 X28.4456 Y-13.9319
G01 X26.5043 Y-11.9906
G01 X26.5043 Y-11.5061
G01 X26.5944 Y-11.4159
G01 X26.6052 Y-11.4039
G01 X26.6156 Y-11.3900
G01 X26.6256 Y-11.3729
G01 X26.6319 Y-11.3594
G01 X26.6378 Y-11.3430
G01 X26.6420 Y-11.3262
G01 X26.6443 Y-11.3114
G01 X26.6454 Y-11.2916
G01 X26.6454 Y-7.2698
G01 X26.6446 Y-7.2536
G01 X26.6424 Y-7.2389
G01 X26.6378 Y-7.2196
G01 X26.6319 Y-7.2032
G01 X26.6256 Y-7.1897
G01 X26.6142 Y-7.1706
G01 X26.6052 Y-7.1587
G01 X26.5944 Y-7.1467
G01 X26.5787 Y-7.1326
G01 X26.5667 Y-7.1238
G01 X26.5518 Y-7.1148
G01 X26.5361 Y-7.1074
G01 X26.5221 Y-7.1023
G01 X26.5005 Y-7.0969
G01 X26.4857 Y-7.0948
G01 X26.4683 Y-7.0939
G01 X25.8092 Y-7.0940
G01 X25.7943 Y-7.0948
G01 X25.7771 Y-7.0973
G01 X25.7602 Y-7.1016
G01 X25.7461 Y-7.1065
G01 X25.7260 Y-7.1160
G01 X25.7132 Y-7.1238
G01 X25.7002 Y-7.1334
G01 X25.6864 Y-7.1458
G01 X22.7150 Y-10.1172
G01 X17.2316 Y-10.1172
G01 X14.9587 Y-7.8443
G01 X14.9439 Y-7.8311
G01 X14.9319 Y-7.8223
G01 X14.9170 Y-7.8133
G01 X14.8990 Y-7.8050
G01 X14.8849 Y-7.8001
G01 X14.8704 Y-7.7964
G01 X14.8508 Y-7.7933
G01 X14.8335 Y-7.7924
G01 X13.0093 Y-7.7924
G01 X12.9895 Y-7.7936
G01 X12.9748 Y-7.7958
G01 X12.9579 Y-7.8001
G01 X12.9393 Y-7.8069
G01 X12.9258 Y-7.8133
G01 X12.9120 Y-7.8216
G01 X12.8970 Y-7.8326
G01 X12.8850 Y-7.8434
G01 X12.7926 Y-7.9358
G01 X12.7802 Y-7.9496
G01 X12.7706 Y-7.9626
G01 X12.7628 Y-7.9754
G01 X12.7542 Y-7.9933
G01 X12.7477 Y-8.0120
G01 X12.7441 Y-8.0265
G01 X12.7417 Y-8.0424
G01 X12.7407 Y-8.0610
G01 X12.7414 Y-8.0759
G01 X12.7447 Y-8.0979
G01 X12.7484 Y-8.1124
G01 X12.7542 Y-8.1288
G01 X12.7616 Y-8.1445
G01 X12.7706 Y-8.1594
G01 X12.7809 Y-8.1733
G01 X12.7909 Y-8.1844
G01 X12.8074 Y-8.1994
G01 X12.8194 Y-8.2082
G01 X12.8343 Y-8.2172
G01 X12.8500 Y-8.2246
G01 X12.8664 Y-8.2304
G01 X12.8857 Y-8.2351
G01 X12.9004 Y-8.2372
G01 X12.9178 Y-8.2381
G01 X14.3449 Y-8.2381
G01 X14.3449 Y-11.1859
G01 X14.1398 Y-11.1859
G01 X14.1236 Y-11.1868
G01 X14.1089 Y-11.1889
G01 X14.0884 Y-11.1939
G01 X14.0710 Y-11.2004
G01 X14.0575 Y-11.2068
G01 X14.0447 Y-11.2145
G01 X14.0287 Y-11.2261
G01 X14.0158 Y-11.2378
G01 X14.0041 Y-11.2507
G01 X13.9925 Y-11.2667
G01 X13.9837 Y-11.2817
G01 X13.9774 Y-11.2952
G01 X13.9723 Y-11.3093
G01 X13.9669 Y-11.3309
G01 X13.9648 Y-11.3456
G01 X13.9639 Y-11.3630
G01 X13.9639 Y-12.0826
G01 X13.9648 Y-12.0987
G01 X13.9669 Y-12.1135
G01 X13.9716 Y-12.1327
G01 X13.9774 Y-12.1491
G01 X13.9837 Y-12.1626
G01 X13.9938 Y-12.1797
G01 X14.0041 Y-12.1937
G01 X14.0158 Y-12.2065
G01 X19.6012 Y-17.7919
G01 X19.6123 Y-17.8019
G01 X19.6263 Y-17.8122
G01 X19.6412 Y-17.8212
G01 X19.6569 Y-17.8286
G01 X19.6733 Y-17.8344
G01 X19.6901 Y-17.8387
G01 X19.7073 Y-17.8412
G01 X19.7234 Y-17.8421
G01 X21.8459 Y-17.8421
G01 X21.8645 Y-17.8411
G01 X21.8805 Y-17.8387
G01 X21.8950 Y-17.8351
G01 X21.9137 Y-17.8286
G01 X21.9294 Y-17.8212
G01 X21.9422 Y-17.8135
G01 X21.9601 Y-17.8003
G01 X21.9712 Y-17.7902
G01 X22.4273 Y-17.3341
G01 X23.3327 Y-17.3341
G01 X23.9729 Y-17.9743
G01 X23.9729 Y-18.8797
G01 X23.3327 Y-19.5199
G01 X22.4273 Y-19.5199
G01 X21.9712 Y-19.0638
G01 X21.9601 Y-19.0537
G01 X21.9422 Y-19.0405
G01 X21.9294 Y-19.0328
G01 X21.9137 Y-19.0254
G01 X21.8950 Y-19.0189
G01 X21.8805 Y-19.0153
G01 X21.8645 Y-19.0129
G01 X21.8459 Y-19.0119
G01 X19.1668 Y-19.0119
G01 X12.7941 Y-12.6392
G01 X12.7941 Y-11.3630
G01 X12.7929 Y-11.3432
G01 X12.7907 Y-11.3284
G01 X12.7864 Y-11.3116
G01 X12.7806 Y-11.2952
G01 X12.7743 Y-11.2817
G01 X12.7642 Y-11.2646
G01 X12.7539 Y-11.2507
G01 X12.7439 Y-11.2396
G01 X12.7293 Y-11.2261
G01 X12.7154 Y-11.2158
G01 X12.7026 Y-11.2080
G01 X12.6848 Y-11.1994
G01 X12.6684 Y-11.1936
G01 X12.6539 Y-11.1899
G01 X12.6331 Y-11.1867
G01 X12.6170 Y-11.1859
G01 X12.5270 Y-11.1860
G01 X12.5121 Y-11.1868
G01 X12.4962 Y-11.1891
G01 X12.4758 Y-11.1943
G01 X12.4617 Y-11.1994
G01 X12.4460 Y-11.2068
G01 X12.4311 Y-11.2158
G01 X12.4172 Y-11.2261
G01 X12.4043 Y-11.2378
G01 X12.3926 Y-11.2507
G01 X12.3823 Y-11.2646
G01 X12.3739 Y-11.2784
G01 X12.3659 Y-11.2952
G01 X12.3594 Y-11.3140
G01 X12.3558 Y-11.3284
G01 X12.3536 Y-11.3432
G01 X12.3524 Y-11.3630
G01 X12.3524 Y-16.0610
G01 X12.3533 Y-16.0784
G01 X12.3564 Y-16.0979
G01 X12.3608 Y-16.1147
G01 X12.3659 Y-16.1288
G01 X12.3722 Y-16.1423
G01 X12.3823 Y-16.1594
G01 X12.3926 Y-16.1733
G01 X12.4043 Y-16.1862
G01 X12.4181 Y-16.1986
G01 X12.4311 Y-16.2082
G01 X12.4460 Y-16.2172
G01 X12.4617 Y-16.2246
G01 X12.4758 Y-16.2297
G01 X12.4974 Y-16.2351
G01 X12.5121 Y-16.2372
G01 X12.5283 Y-16.2381
G01 X14.3449 Y-16.2381
G01 X14.3449 Y-16.9500
G01 X14.3458 Y-16.9674
G01 X14.3479 Y-16.9821
G01 X14.3533 Y-17.0037
G01 X14.3584 Y-17.0178
G01 X14.3658 Y-17.0335
G01 X14.3762 Y-17.0504
G01 X14.3851 Y-17.0623
G01 X14.3968 Y-17.0752
G01 X14.4116 Y-17.0884
G01 X14.4236 Y-17.0972
G01 X14.4385 Y-17.1062
G01 X14.4565 Y-17.1145
G01 X14.4706 Y-17.1194
G01 X14.4862 Y-17.1234
G01 X14.5046 Y-17.1262
G01 X14.5220 Y-17.1271
G01 X16.4183 Y-17.1271
G01 X19.6214 Y-20.3302
G01 X19.6343 Y-20.3419
G01 X19.6482 Y-20.3522
G01 X19.6631 Y-20.3612
G01 X19.6800 Y-20.3691
G01 X19.6952 Y-20.3744
G01 X19.7121 Y-20.3787
G01 X19.7293 Y-20.3812
G01 X19.7466 Y-20.3821
G01 X21.8459 Y-20.3821
G01 X21.8645 Y-20.3811
G01 X21.8805 Y-20.3787
G01 X21.8950 Y-20.3751
G01 X21.9137 Y-20.3686
G01 X21.9294 Y-20.3612
G01 X21.9422 Y-20.3535
G01 X21.9601 Y-20.3403
G01 X21.9712 Y-20.3302
G01 X22.4273 Y-19.8741
G01 X23.3327 Y-19.8741
G01 X23.9729 Y-20.5143
G01 X23.9729 Y-21.4197
G01 X23.3327 Y-22.0599
G01 X22.4273 Y-22.0599
G01 X21.9694 Y-21.6021
G01 X21.9583 Y-21.5921
G01 X21.9463 Y-21.5832
G01 X21.9283 Y-21.5723
G01 X21.9137 Y-21.5654
G01 X21.8997 Y-21.5603
G01 X21.8781 Y-21.5549
G01 X21.8633 Y-21.5528
G01 X21.8459 Y-21.5519
G01 X19.1887 Y-21.5519
G01 X15.9856 Y-18.3488
G01 X15.9708 Y-18.3356
G01 X15.9588 Y-18.3268
G01 X15.9460 Y-18.3190
G01 X15.9281 Y-18.3104
G01 X15.9106 Y-18.3042
G01 X15.8949 Y-18.3003
G01 X15.8802 Y-18.2981
G01 X15.8604 Y-18.2969
G01 X14.5220 Y-18.2969
G01 X14.5022 Y-18.2981
G01 X14.4874 Y-18.3003
G01 X14.4730 Y-18.3039
G01 X14.4542 Y-18.3104
G01 X14.4374 Y-18.3184
G01 X14.4216 Y-18.3282
G01 X14.4097 Y-18.3371
G01 X14.3986 Y-18.3471
G01 X14.3851 Y-18.3617
G01 X14.3748 Y-18.3756
G01 X14.3658 Y-18.3905
G01 X14.3575 Y-18.4085
G01 X14.3526 Y-18.4226
G01 X14.3489 Y-18.4371
G01 X14.3458 Y-18.4566
G01 X14.3449 Y-18.4740
G01 X14.3449 Y-19.1859
G01 X12.5295 Y-19.1859
G01 X12.5134 Y-19.1867
G01 X12.4949 Y-19.1893
G01 X12.4805 Y-19.1929
G01 X12.4595 Y-19.2004
G01 X12.4460 Y-19.2068
G01 X12.4311 Y-19.2158
G01 X12.4172 Y-19.2261
G01 X12.4043 Y-19.2378
G01 X12.3926 Y-19.2507
G01 X12.3837 Y-19.2626
G01 X12.3722 Y-19.2817
G01 X12.3659 Y-19.2952
G01 X12.3601 Y-19.3116
G01 X12.3558 Y-19.3284
G01 X12.3533 Y-19.3456
G01 X12.3524 Y-19.3630
G01 X12.3524 Y-19.5547
G01 X12.3534 Y-19.5733
G01 X12.3558 Y-19.5892
G01 X12.3594 Y-19.6037
G01 X12.3659 Y-19.6225
G01 X12.3745 Y-19.6403
G01 X12.3823 Y-19.6531
G01 X12.3926 Y-19.6670
G01 X12.4043 Y-19.6799
G01 X13.5200 Y-20.7956
G01 X13.5339 Y-20.8079
G01 X13.5459 Y-20.8167
G01 X13.5587 Y-20.8245
G01 X13.5765 Y-20.8331
G01 X13.5941 Y-20.8393
G01 X13.6098 Y-20.8432
G01 X13.6245 Y-20.8454
G01 X13.6443 Y-20.8466
G01 X17.5537 Y-20.8466
G01 X20.0596 Y-23.3525
G01 X20.0725 Y-23.3642
G01 X20.0864 Y-23.3745
G01 X20.1014 Y-23.3834
G01 X20.1194 Y-23.3918
G01 X20.1346 Y-23.3971
G01 X20.1527 Y-23.4014
G01 X20.1699 Y-23.4037
G01 X20.1836 Y-23.4043
G01 X20.2013 Y-23.4044
G01 X21.3059 Y-24.5090
G01 X21.3059 Y-34.3874
G01 X21.3068 Y-34.4047
G01 X21.3096 Y-34.4231
G01 X21.3136 Y-34.4388
G01 X21.3185 Y-34.4529
G01 X21.3268 Y-34.4709
G01 X21.3358 Y-34.4858
G01 X21.3446 Y-34.4978
G01 X21.3578 Y-34.5126
G01 X22.0690 Y-35.2237
G01 X22.0810 Y-35.2346
G01 X22.0970 Y-35.2462
G01 X22.1098 Y-35.2538
G01 X22.1233 Y-35.2603
G01 X22.1407 Y-35.2667
G01 X22.1587 Y-35.2713
G01 X22.1759 Y-35.2739
G01 X22.1933 Y-35.2747
G01 X22.2106 Y-35.2739
G01 X22.2278 Y-35.2713
G01 X22.2447 Y-35.2671
G01 X22.2610 Y-35.2613
G01 X22.2767 Y-35.2538
G01 X22.2937 Y-35.2435
G01 X22.3056 Y-35.2346
G01 X22.3167 Y-35.2246
G01 X22.4273 Y-35.1141
G01 X23.3327 Y-35.1141
G01 X23.9729 Y-35.7543
G01 X23.9729 Y-36.6597
G01 X23.3327 Y-37.2999
G01 X22.4273 Y-37.2999
G01 X21.7866 Y-36.6593
G01 X21.7861 Y-36.6510
G01 X21.7834 Y-36.6339
G01 X21.7794 Y-36.6182
G01 X21.7731 Y-36.6007
G01 X21.7662 Y-36.5861
G01 X21.7572 Y-36.5712
G01 X21.7469 Y-36.5573
G01 X21.7361 Y-36.5453
G01 X20.2747 Y-35.0839
G01 X20.2618 Y-35.0722
G01 X20.2458 Y-35.0606
G01 X20.2330 Y-35.0529
G01 X20.2195 Y-35.0465
G01 X20.2009 Y-35.0397
G01 X20.1840 Y-35.0354
G01 X20.1644 Y-35.0327
G01 X20.1495 Y-35.0320
G01 X20.1346 Y-35.0327
G01 X20.1162 Y-35.0352
G01 X20.0981 Y-35.0397
G01 X20.0840 Y-35.0446
G01 X20.0639 Y-35.0541
G01 X20.0511 Y-35.0619
G01 X20.0372 Y-35.0722
G01 X20.0243 Y-35.0839
G01 X20.0142 Y-35.0949
G01 X20.0010 Y-35.1128
G01 X19.9933 Y-35.1256
G01 X19.9859 Y-35.1413
G01 X19.9801 Y-35.1577
G01 X19.9764 Y-35.1722
G01 X19.9731 Y-35.1942
G01 X19.9724 Y-35.2091
G01 X19.9724 Y-37.3347
G01 X19.9733 Y-37.3520
G01 X19.9756 Y-37.3680
G01 X19.9808 Y-37.3884
G01 X19.9859 Y-37.4024
G01 X19.9933 Y-37.4182
G01 X20.0037 Y-37.4351
G01 X20.0126 Y-37.4470
G01 X20.0234 Y-37.4590
G01 X20.7381 Y-38.1737
G01 X20.7510 Y-38.1854
G01 X20.7649 Y-38.1957
G01 X20.7798 Y-38.2047
G01 X20.7933 Y-38.2111
G01 X20.8143 Y-38.2186
G01 X20.8288 Y-38.2222
G01 X20.8472 Y-38.2248
G01 X20.8633 Y-38.2256
G01 X21.7824 Y-38.2256
G01 X21.7998 Y-38.2247
G01 X21.8182 Y-38.2219
G01 X21.8338 Y-38.2179
G01 X21.8479 Y-38.2130
G01 X21.8659 Y-38.2047
G01 X21.8828 Y-38.1943
G01 X21.8948 Y-38.1854
G01 X21.9068 Y-38.1746
G01 X22.4273 Y-37.6541
G01 X23.3327 Y-37.6541
G01 X23.9729 Y-38.2943
G01 X23.9729 Y-39.1997
G01 X23.3327 Y-39.8399
G01 X22.4273 Y-39.8399
G01 X21.9068 Y-39.3194
G01 X21.8928 Y-39.3071
G01 X21.8808 Y-39.2983
G01 X21.8681 Y-39.2905
G01 X21.8502 Y-39.2819
G01 X21.8327 Y-39.2757
G01 X21.8170 Y-39.2718
G01 X21.8022 Y-39.2696
G01 X21.7824 Y-39.2684
G01 X20.3580 Y-39.2684
G01 X19.0038 Y-37.9142
G01 X18.9918 Y-37.9034
G01 X18.9779 Y-37.8931
G01 X18.9630 Y-37.8841
G01 X18.9495 Y-37.8777
G01 X18.9285 Y-37.8702
G01 X18.9140 Y-37.8666
G01 X18.8956 Y-37.8640
G01 X18.8795 Y-37.8632
G01 X18.8621 Y-37.8641
G01 X18.8450 Y-37.8666
G01 X18.8281 Y-37.8709
G01 X18.8117 Y-37.8767
G01 X18.7960 Y-37.8841
G01 X18.7811 Y-37.8931
G01 X18.7653 Y-37.9050
G01 X18.7543 Y-37.9151
G01 X18.0725 Y-38.5969
G01 X18.0608 Y-38.6098
G01 X18.0492 Y-38.6258
G01 X18.0415 Y-38.6386
G01 X18.0351 Y-38.6521
G01 X18.0283 Y-38.6707
G01 X18.0240 Y-38.6876
G01 X18.0213 Y-38.7072
G01 X18.0206 Y-38.7221
G01 X18.0213 Y-38.7370
G01 X18.0236 Y-38.7542
G01 X18.0290 Y-38.7758
G01 X18.0341 Y-38.7899
G01 X18.0415 Y-38.8056
G01 X18.0505 Y-38.8205
G01 X18.0593 Y-38.8325
G01 X18.0725 Y-38.8473
G01 X19.8754 Y-40.6502
G01 X19.8902 Y-40.6634
G01 X19.9022 Y-40.6722
G01 X19.9150 Y-40.6800
G01 X19.9329 Y-40.6886
G01 X19.9504 Y-40.6948
G01 X19.9661 Y-40.6987
G01 X19.9808 Y-40.7009
G01 X20.0006 Y-40.7021
G01 X21.8459 Y-40.7021
G01 X21.8657 Y-40.7009
G01 X21.8805 Y-40.6987
G01 X21.8950 Y-40.6951
G01 X21.9148 Y-40.6881
G01 X21.9294 Y-40.6812
G01 X21.9422 Y-40.6735
G01 X21.9601 Y-40.6603
G01 X21.9712 Y-40.6502
G01 X22.4273 Y-40.1941
G01 X23.3327 Y-40.1941
G01 X23.9729 Y-40.8343
G01 X23.9729 Y-41.7397
G01 X23.3327 Y-42.3799
G01 X22.4273 Y-42.3799
G01 X21.9712 Y-41.9238
G01 X21.9601 Y-41.9137
G01 X21.9422 Y-41.9005
G01 X21.9294 Y-41.8928
G01 X21.9137 Y-41.8854
G01 X21.8950 Y-41.8789
G01 X21.8805 Y-41.8753
G01 X21.8645 Y-41.8729
G01 X21.8459 Y-41.8719
G01 X19.4427 Y-41.8719
G01 X16.9746 Y-39.4038
G01 X16.9617 Y-39.3921
G01 X16.9457 Y-39.3805
G01 X16.9329 Y-39.3728
G01 X16.9194 Y-39.3664
G01 X16.9008 Y-39.3596
G01 X16.8815 Y-39.3549
G01 X16.8667 Y-39.3528
G01 X16.8506 Y-39.3519
G01 X14.6917 Y-39.3519
G01 X13.1966 Y-37.8568
G01 X13.1818 Y-37.8436
G01 X13.1698 Y-37.8348
G01 X13.1549 Y-37.8258
G01 X13.1391 Y-37.8184
G01 X13.1204 Y-37.8119
G01 X13.1059 Y-37.8083
G01 X13.0912 Y-37.8061
G01 X13.0726 Y-37.8049
G01 X11.7861 Y-37.8049
G01 X11.7861 Y-37.2780
G01 X11.7852 Y-37.2607
G01 X11.7831 Y-37.2459
G01 X11.7784 Y-37.2266
G01 X11.7716 Y-37.2080
G01 X11.7652 Y-37.1946
G01 X11.7575 Y-37.1817
G01 X11.7459 Y-37.1657
G01 X11.7324 Y-37.1511
G01 X11.7213 Y-37.1412
G01 X11.7094 Y-37.1322
G01 X11.6925 Y-37.1219
G01 X11.6768 Y-37.1144
G01 X11.6580 Y-37.1079
G01 X11.6436 Y-37.1044
G01 X11.6288 Y-37.1021
G01 X11.6090 Y-37.1010
G01 X11.5892 Y-37.1021
G01 X11.5745 Y-37.1044
G01 X11.5600 Y-37.1079
G01 X11.5413 Y-37.1144
G01 X11.5234 Y-37.1231
G01 X11.5106 Y-37.1308
G01 X11.4967 Y-37.1412
G01 X11.4838 Y-37.1528
G01 X10.8317 Y-37.8049
G01 X9.9263 Y-37.8049
G01 X9.2861 Y-37.1647
G01 X9.2861 Y-37.1464
G01 X9.2853 Y-37.1315
G01 X9.2827 Y-37.1131
G01 X9.2784 Y-37.0962
G01 X9.2735 Y-37.0821
G01 X9.2646 Y-37.0631
G01 X9.2562 Y-37.0492
G01 X9.2443 Y-37.0334
G01 X9.2342 Y-37.0224
G01 X9.1661 Y-36.9543
G01 X9.1661 Y-35.2876
G01 X9.1652 Y-35.2703
G01 X9.1621 Y-35.2507
G01 X9.1584 Y-35.2362
G01 X9.1535 Y-35.2221
G01 X9.1457 Y-35.2052
G01 X9.1348 Y-35.1872
G01 X9.1259 Y-35.1753
G01 X9.1142 Y-35.1624
G01 X8.1462 Y-34.1944
G01 X8.1333 Y-34.1827
G01 X8.1173 Y-34.1711
G01 X8.1045 Y-34.1634
G01 X8.0910 Y-34.1570
G01 X8.0736 Y-34.1505
G01 X8.0555 Y-34.1459
G01 X8.0383 Y-34.1434
G01 X8.0210 Y-34.1425
G01 X8.0036 Y-34.1434
G01 X7.9864 Y-34.1459
G01 X7.9696 Y-34.1502
G01 X7.9532 Y-34.1560
G01 X7.9354 Y-34.1646
G01 X7.9216 Y-34.1731
G01 X7.9068 Y-34.1843
G01 X7.8958 Y-34.1944
G01 X7.8857 Y-34.2054
G01 X7.8752 Y-34.2192
G01 X7.8648 Y-34.2361
G01 X7.8574 Y-34.2518
G01 X7.8516 Y-34.2682
G01 X7.8476 Y-34.2838
G01 X7.8448 Y-34.3022
G01 X7.8439 Y-34.3196
G01 X7.8439 Y-35.1557
G01 X7.3869 Y-35.6127
G01 X7.3761 Y-35.6247
G01 X7.3645 Y-35.6408
G01 X7.3568 Y-35.6536
G01 X7.3504 Y-35.6670
G01 X7.3439 Y-35.6845
G01 X7.3389 Y-35.7049
G01 X7.3368 Y-35.7197
G01 X7.3359 Y-35.7371
G01 X7.3359 Y-36.4034
G01 X7.3371 Y-36.4232
G01 X7.3393 Y-36.4379
G01 X7.3429 Y-36.4524
G01 X7.3494 Y-36.4711
G01 X7.3580 Y-36.4890
G01 X7.3658 Y-36.5018
G01 X7.3746 Y-36.5138
G01 X7.3878 Y-36.5286
G01 X10.3359 Y-39.4767
G01 X10.3359 Y-41.4420
G01 X10.3368 Y-41.4594
G01 X10.3393 Y-41.4766
G01 X10.3436 Y-41.4934
G01 X10.3494 Y-41.5098
G01 X10.3568 Y-41.5255
G01 X10.3672 Y-41.5424
G01 X10.3761 Y-41.5543
G01 X10.3861 Y-41.5654
G01 X10.4007 Y-41.5789
G01 X10.4146 Y-41.5892
G01 X10.4317 Y-41.5993
G01 X10.4452 Y-41.6056
G01 X10.4593 Y-41.6107
G01 X10.4772 Y-41.6154
G01 X10.4956 Y-41.6182
G01 X10.5130 Y-41.6191
G01 X10.8317 Y-41.6191
G01 X11.4838 Y-42.2712
G01 X11.4986 Y-42.2844
G01 X11.5106 Y-42.2932
G01 X11.5245 Y-42.3015
G01 X11.5413 Y-42.3096
G01 X11.5576 Y-42.3154
G01 X11.5745 Y-42.3196
G01 X11.5917 Y-42.3222
G01 X11.6090 Y-42.3230
G01 X11.6264 Y-42.3222
G01 X11.6436 Y-42.3196
G01 X11.6627 Y-42.3146
G01 X11.6779 Y-42.3091
G01 X11.6946 Y-42.3009
G01 X11.7074 Y-42.2932
G01 X11.7194 Y-42.2844
G01 X11.7324 Y-42.2729
G01 X11.7459 Y-42.2583
G01 X11.7562 Y-42.2443
G01 X11.7652 Y-42.2294
G01 X11.7731 Y-42.2126
G01 X11.7784 Y-42.1974
G01 X11.7827 Y-42.1805
G01 X11.7852 Y-42.1633
G01 X11.7861 Y-42.1472
G01 X11.7861 Y-41.6191
G01 X13.9719 Y-41.6191
G01 X13.9719 Y-41.9512
G01 X13.9728 Y-41.9674
G01 X13.9749 Y-41.9821
G01 X13.9796 Y-42.0014
G01 X13.9854 Y-42.0178
G01 X13.9917 Y-42.0313
G01 X14.0018 Y-42.0484
G01 X14.0121 Y-42.0623
G01 X14.0221 Y-42.0734
G01 X14.0367 Y-42.0869
G01 X14.0506 Y-42.0972
G01 X14.0634 Y-42.1050
G01 X14.0812 Y-42.1136
G01 X14.1000 Y-42.1201
G01 X14.1144 Y-42.1237
G01 X14.1316 Y-42.1262
G01 X14.1490 Y-42.1271
G01 X18.6213 Y-42.1271
G01 X19.7053 Y-43.2111
G01 X19.7173 Y-43.2219
G01 X19.7292 Y-43.2308
G01 X19.7483 Y-43.2423
G01 X19.7619 Y-43.2486
G01 X19.7782 Y-43.2544
G01 X19.7951 Y-43.2587
G01 X19.8110 Y-43.2611
G01 X19.8296 Y-43.2621
G01 X21.8259 Y-43.2621
G01 X21.8433 Y-43.2612
G01 X21.8581 Y-43.2591
G01 X21.8797 Y-43.2537
G01 X21.8937 Y-43.2486
G01 X21.9083 Y-43.2417
G01 X21.9263 Y-43.2308
G01 X21.9383 Y-43.2219
G01 X21.9494 Y-43.2119
G01 X22.4273 Y-42.7341
G01 X23.3327 Y-42.7341
G01 X23.9729 Y-43.3743
G01 X23.9729 Y-44.2797
G01 X23.3327 Y-44.9199
G01 X22.4273 Y-44.9199
G01 X21.9894 Y-44.4821
G01 X21.9783 Y-44.4721
G01 X21.9663 Y-44.4632
G01 X21.9483 Y-44.4523
G01 X21.9337 Y-44.4454
G01 X21.9197 Y-44.4403
G01 X21.8981 Y-44.4349
G01 X21.8833 Y-44.4328
G01 X21.8659 Y-44.4319
G01 X19.2717 Y-44.4319
G01 X18.1877 Y-43.3479
G01 X18.1757 Y-43.3371
G01 X18.1618 Y-43.3268
G01 X18.1469 Y-43.3178
G01 X18.1334 Y-43.3114
G01 X18.1124 Y-43.3039
G01 X18.0979 Y-43.3003
G01 X18.0807 Y-43.2978
G01 X18.0634 Y-43.2969
G01 X14.1490 Y-43.2969
